;FLAVOR:Marlin
;TIME:6076
;Filament used:4.74458m
;Layer height: 0.16
;MINX:38.209
;MINY:62.412
;MINZ:0.24
;MAXX:161.81
;MAXY:135.58
;MAXZ:8.04
                               
;Creality Print GCode Generated by CXEngineDEV
;Generated Time:2022-07-13 18:04:01
;----------Machine Config--------------
;Machine Name:Ender-3 V2
;Machine Height:200
;Machine Width:200
;Machine Depth:200
;Material name:Castable
;Number of Extruders:1
;ExtruderParams[0] Nozzle Diameter1000
;----------Profile Config---------------
;Layer Height:0.16
;Wall Thickness:0.8
;Top/Bottom Thickness:0.6
;Out Wall Line Width:0.4
;Inner Wall Line Width:0.4
;Inital Layer Height:100
;Wall Line Count:2
;Infill Line Distance:2
;Infill Pattern:quarter_cubic
;Infill Sparse Density:50
;Infill Wipe Distance:0
;Print Temperature:210
;Bed Temperature:65
;Support Enable:true
;Support Density:30
;Support Angle:0.349066
;Adhesion Type:simpleraft
;machine is belt:false
;machine belt offset:10
;machine belt offset Y:0
;Raft Base Line Spacing:1.6
;Wait Heatup Sync:true
;----------Shell Config----------------
;Outer Wall Wipe Distance:200
;Infill Before Walls:false
;Infill Overlap:0.16
;Fill Gaps Between Walls:everywhere
;Minimum Infill Area:1
;Top Surface Skin Layer:0
;Top Layers:4
;Z Seam Alignment:sharpest_corner
;Seam Corner Preference:z_seam_corner_inner
;Z Seam X:100
;Z Seam Y:100
;Horizontal Expansion:0
;Top/Bottom Pattern:zigzag
;Ironing Pattern:zigzag
;Vase Model:false
;----------Support Config----------------
;Support Type:everywhere
;Support Pattern:grid
;Support Infill Layer Thickness:0.16
;Minimum Support Area:5
;Enable Support Roof:false
;Support Roof Thickness:0.8
;Support Roof Pattern:lines
;Connect Support Lines:1
;Connect Support ZigZags:1
;Minimum Support X/Y Distance:0.2
;Support Line Distance:2.67
; ---------PrintSpeed & Travel----------
;Enable Print Cool:true
;Avoid Printed Parts Traveling:true
;Enable Retraction:true
;Retraction Distance:8
;Retraction Speed:60
;Retraction Prime Speed:60
;Maximum Retraction Count:100
;Minimum Extrusion Distance Window:1
;Z Hop When Retracted:false
;Z Hop Height:0.2
;Retract Before Outer Wall:true
;Print Speed:75
;Infill Speed:75

;Prime Tower Speed:60
;Travel Speed:100
;Initial Layer Speed:15
;Skirt/Brim Speed:37.5
;Combing Mode:all
; --------SpecialModel&Mesh Fixes--------
;Union Overlapping Volum:true
;Remove All Holes:false
;Maximum Travel Resolution:0.25
;Maximum Deviation:0.05
;Maximum Model Angle:0.872665
;IS Mold Print:false
;Make Overhang Printable:false
;Enable Coasting:false
;Coasting Volumes:0.06
;Coasting Speed:0.9
;Raft AirGap:0.25
;Layer0 ZOverLap:0.13
;---------------------End of Head--------------------------
M140 S65
M105
M104 S210
M105
M109 S210
M105
M190 S65
M82 ;absolute extrusion mode
M220 S100 ;Reset Feedrate
M221 S100 ;Reset Flowrate

G28 ;Home

G92 E0 ;Reset Extruder
G1 Z2.0 F3000 ;Move Z Axis up
G1 X10.1 Y20 Z0.28 F5000.0 ;Move to start position
G1 X10.1 Y145.0 Z0.28 F1500.0 E15 ;Draw the first line
G1 X10.4 Y145.0 Z0.28 F5000.0 ;Move to side a little
G1 X10.4 Y20 Z0.28 F1500.0 E30 ;Draw the second line
G92 E0  ;Reset Extruder
G1 E-1.0000 F1800 ;Retract a bit
G1 Z2.0 F3000 ;Move Z Axis up
G1 E0.0000 F1800 

G92 E0
G92 E0
G1 F3600 E-8

;LAYER_COUNT:44

;LAYER:-4
M140 S65
M107
G0 F6000 X41.6 Y95.84 Z0.24
;TYPE:SUPPORT-INTERFACE
G1 F3600 E0
G1 F1200 X41.6 Y118.122 E1.95651
G1 X41.274 Y117.67 E2.00544
G1 X41.09 Y117.391 E2.03479
G1 X40.667 Y116.695 E2.10631
G1 X40.5 Y116.39 E2.13684
G1 X40.175 Y115.747 E2.2001
G1 X40.022 Y115.41 E2.2326
G1 X40 Y115.356 E2.23772
G1 X40 Y98.607 E3.70839
G1 X40.06 Y98.464 E3.72201
G1 X40.229 Y98.104 E3.75693
G1 X40.573 Y97.433 E3.82314
G1 X40.729 Y97.156 E3.85105
G1 X41.147 Y96.48 E3.92084
G1 X41.333 Y96.205 E3.94999
G1 X41.787 Y95.586 E4.0174
G1 X42.009 Y95.308 E4.04864
G1 X42.507 Y94.729 E4.1157
G1 X42.752 Y94.466 E4.14726
G1 X43.2 Y94.02 E4.20276
G1 X43.2 Y119.941 E6.4788
G1 X43.462 Y120.187 E6.51036
G1 X44.028 Y120.672 E6.57581
G1 X44.331 Y120.914 E6.60986
G1 X44.8 Y121.258 E6.66093
G1 X44.8 Y92.704 E9.16816
G1 X45.039 Y92.532 E9.19402
G1 X45.3 Y92.358 E9.22156
G1 X45.976 Y91.948 E9.29098
G1 X46.261 Y91.79 E9.3196
G1 X46.4 Y91.719 E9.3333
G1 X46.4 Y122.239 E12.01317
G1 X46.822 Y122.455 E12.05479
G1 X47.182 Y122.624 E12.08971
G1 X47.825 Y122.893 E12.15091
G1 X48 Y122.959 E12.16734
G1 X48 Y90.998 E14.97373
G1 X48.335 Y90.877 E15.005
G1 X49.011 Y90.658 E15.0674
G1 X49.373 Y90.559 E15.10035
G1 X49.6 Y90.504 E15.12086
G1 X49.6 Y123.454 E18.01409
G1 X50.009 Y123.554 E18.05106
G1 X50.361 Y123.627 E18.08263
G1 X51.119 Y123.75 E18.15006
G1 X51.2 Y123.759 E18.15721
G1 X51.2 Y90.2 E21.10392
G1 X51.523 Y90.162 E21.13248
G1 X52.419 Y90.097 E21.21136
G1 X52.8 Y90.088 E21.24482
G1 X52.8 Y123.872 E24.21129
G1 X52.985 Y123.879 E24.22754
G1 X54.4 Y123.879 E24.35179
G1 X54.4 Y90.081 E27.31948
G1 X56 Y90.081 E27.45997
G1 X56 Y123.879 E30.42766
G1 X57.6 Y123.879 E30.56816
G1 X57.6 Y90.082 E33.53576
G1 X59.2 Y90.082 E33.67625
G1 X59.2 Y123.879 E36.64386
G1 X60.8 Y123.879 E36.78435
G1 X60.8 Y89.912 E39.76688
G1 X60.869 Y89.899 E39.77304
G1 X61.566 Y89.671 E39.83744
G1 X62.229 Y89.358 E39.90181
G1 X62.4 Y89.248 E39.91967
G1 X62.4 Y123.879 E42.9605
G1 X64 Y123.879 E43.10099
G1 X64 Y87.828 E46.26652
G1 X64.338 Y87.36 E46.31721
G1 X64.687 Y86.714 E46.38168
G1 X64.951 Y86.03 E46.44606
G1 X65.127 Y85.319 E46.51037
G1 X65.212 Y84.595 E46.57438
G1 X65.212 Y83.975 E46.62882
G1 X65.205 Y83.547 E46.66641
G1 X65.208 Y80.039 E46.97443
G1 X65.222 Y79.575 E47.01519
G1 X65.254 Y79.058 E47.06068
G1 X65.284 Y78.742 E47.08855
G1 X65.364 Y78.108 E47.14466
G1 X65.407 Y77.835 E47.16893
G1 X65.552 Y77.098 E47.23488
G1 X65.6 Y76.907 E47.25217
G1 X65.6 Y123.841 E51.37329
G1 X65.739 Y123.834 E51.38552
G1 X65.946 Y123.813 E51.40378
G1 X66.593 Y123.715 E51.46124
G1 X66.713 Y123.692 E51.47197
G0 F6000 X66.713 Y123.691
G1 F1200 X67.2 Y123.572 E51.51599
G1 X67.2 Y72.965 E55.95963
G1 X67.477 Y72.513 E56.00618
G1 X67.695 Y72.186 E56.04069
G1 X68.01 Y71.742 E56.08849
G1 X68.204 Y71.488 E56.11655
G1 X68.592 Y71.01 E56.17061
G1 X68.8 Y70.778 E56.19797
G1 X68.8 Y122.994 E60.78289
G1 X69.825 Y122.537 E60.88143
G1 X69.845 Y122.599 E60.88715
G1 X69.954 Y122.563 E60.89723
G1 X70.4 Y122.478 E60.9371
G1 X70.4 Y69.238 E65.61193
G1 X70.457 Y69.19 E65.61847
G1 X71.053 Y68.73 E65.68458
G1 X71.705 Y68.273 E65.75449
G1 X72 Y68.083 E65.7853
G1 X72 Y122.38 E70.55294
G1 X73.6 Y122.38 E70.69344
G1 X73.6 Y67.153 E75.54274
G1 X74.229 Y66.842 E75.60435
G1 X74.61 Y66.667 E75.64117
G1 X75.2 Y66.42 E75.69733
G1 X75.2 Y122.38 E80.611
G1 X76.8 Y122.38 E80.75149
G1 X76.8 Y65.852 E85.71503
G1 X76.939 Y65.809 E85.7278
G1 X77.682 Y65.604 E85.79548
G1 X78.158 Y65.49 E85.83846
G1 X78.4 Y65.439 E85.86017
G1 X78.4 Y122.38 E90.85998
G1 X80 Y122.38 E91.00047
G1 X80 Y65.168 E96.02407
G1 X80.581 Y65.101 E96.07542
G1 X81.325 Y65.046 E96.14093
G1 X81.6 Y65.036 E96.16509
G1 X81.6 Y122.38 E101.20028
G1 X83.2 Y122.38 E101.34078
G1 X83.2 Y65.014 E106.3779
G1 X84.8 Y65.014 E106.51839
G1 X84.8 Y122.38 E111.55551
G1 X86.4 Y122.38 E111.696
G1 X86.4 Y65.014 E116.73312
G1 X88 Y65.014 E116.87362
G1 X88 Y122.38 E121.91074
G1 X88.471 Y122.38 E121.95209
G1 X89.394 Y122.458 E122.03343
G1 X89.6 Y122.505 E122.05198
G1 X89.6 Y65.014 E127.10008
G1 X91.2 Y65.013 E127.24057
G1 X91.2 Y123.092 E132.3403
G1 X91.452 Y123.225 E132.36532
G1 X92.054 Y123.644 E132.42972
G1 X92.596 Y124.135 E132.49394
G1 X92.8 Y124.373 E132.52146
G1 X92.8 Y65.013 E137.73367
G1 X94.4 Y65.013 E137.87416
G1 X94.4 Y127.293 E143.34277
G1 X94.508 Y127.508 E143.36389
G1 X94.658 Y127.78 E143.39117
G1 X95.083 Y128.481 E143.46315
G1 X95.274 Y128.77 E143.49357
G1 X95.678 Y129.329 E143.55413
G1 X95.945 Y129.675 E143.5925
G1 X96 Y129.739 E143.59991
G1 X96 Y65.013 E149.28329
G1 X97.6 Y65.013 E149.42378
G1 X97.6 Y131.405 E155.25345
G1 X98.028 Y131.772 E155.30296
G1 X98.331 Y132.014 E155.33701
G1 X98.913 Y132.441 E155.40039
G1 X99.198 Y132.636 E155.43071
G0 F6000 X99.2 Y132.637
G1 F1200 X99.2 Y65.013 E161.36855
G1 X100.8 Y65.012 E161.50905
G1 X100.8 Y133.543 E167.52653
G1 X100.822 Y133.555 E167.52873
G1 X101.173 Y133.72 E167.56279
G1 X101.825 Y133.993 E167.62485
G1 X102.234 Y134.148 E167.66326
G1 X102.4 Y134.202 E167.67859
G1 X102.4 Y65.012 E173.75394
G1 X104 Y65.012 E173.89443
G1 X104 Y134.652 E180.00929
G0 F6000 X104.004 Y134.653
G1 F1200 X104.356 Y134.727 E180.04087
G1 X105.119 Y134.85 E180.10873
G1 X105.459 Y134.891 E180.1388
G1 X105.6 Y134.902 E180.15122
G1 X105.6 Y65.012 E186.28804
G1 X107.2 Y65.012 E186.42853
G1 X107.2 Y134.979 E192.5721
G1 X108.8 Y134.979 E192.71259
G1 X108.8 Y64.927 E198.86363
G1 X109.308 Y64.829 E198.90906
G1 X110.007 Y64.6 E198.97365
G1 X110.4 Y64.411 E199.01194
G1 X110.4 Y134.979 E205.20829
G1 X112 Y134.979 E205.34878
G1 X112 Y63.638 E211.613
G1 X112.599 Y63.429 E211.66871
G1 X112.761 Y63.38 E211.68357
G1 X113.388 Y63.222 E211.74034
G1 X113.581 Y63.182 E211.75765
G1 X113.6 Y63.179 E211.75934
G1 X113.6 Y134.979 E218.06386
G1 X115.2 Y134.979 E218.20435
G1 X115.2 Y63.022 E224.52267
G1 X115.406 Y63.012 E224.54078
G1 X116.8 Y63.013 E224.66318
G1 X116.8 Y134.979 E230.98228
G1 X118.4 Y134.979 E231.12277
G1 X118.4 Y63.013 E237.44187
G1 X120 Y63.013 E237.58236
G1 X120 Y134.979 E243.90146
G1 X121.6 Y134.979 E244.04195
G1 X121.6 Y63.015 E250.36088
G1 X122.424 Y63.043 E250.43327
G1 X123.2 Y63.108 E250.50165
G1 X123.2 Y134.979 E256.81241
G1 X124.8 Y134.979 E256.9529
G1 X124.8 Y63.356 E263.24188
G1 X124.807 Y63.357 E263.24251
G1 X125.496 Y63.506 E263.3044
G1 X125.698 Y63.559 E263.32274
G1 X126.4 Y63.781 E263.38739
G1 X126.4 Y134.979 E269.63905
G1 X128 Y134.979 E269.77955
G1 X128 Y64.4 E275.97686
G1 X128.614 Y64.679 E276.03608
G1 X129.06 Y64.909 E276.08014
G1 X129.6 Y65.208 E276.13434
G1 X129.6 Y134.979 E282.2607
G1 X131.2 Y134.979 E282.40119
G1 X131.2 Y66.277 E288.43369
G1 X131.388 Y66.416 E288.45422
G1 X132.019 Y66.934 E288.52591
G1 X132.432 Y67.299 E288.57431
G1 X132.8 Y67.655 E288.61926
G1 X132.8 Y134.979 E294.53077
G1 X134.4 Y134.979 E294.67126
G1 X134.4 Y69.482 E300.42234
G1 X134.61 Y69.758 E300.45279
G0 F6000 X134.611 Y69.758
G1 F1200 X134.842 Y70.084 E300.48787
G1 X135.282 Y70.767 E300.55921
G1 X135.537 Y71.203 E300.60356
G1 X135.847 Y71.775 E300.66069
G1 X136 Y72.083 E300.69089
G1 X136 Y134.979 E306.21358
G1 X137.6 Y134.979 E306.35407
G1 X137.6 Y78.071 E311.35098
G1 X137.637 Y78.473 E311.38643
G1 X137.655 Y79.247 E311.45441
G1 X137.65 Y84.902 E311.95095
G1 X137.63 Y85.526 E312.00577
G1 X137.639 Y86.232 E312.06777
G1 X137.744 Y86.96 E312.13235
G1 X137.938 Y87.665 E312.19656
G1 X138.218 Y88.343 E312.26097
G1 X138.585 Y88.979 E312.32544
G1 X139.026 Y89.564 E312.38977
G1 X139.2 Y89.743 E312.41169
G1 X139.2 Y134.979 E316.38372
G1 X140.8 Y134.979 E316.52421
G1 X140.8 Y90.95 E320.39025
G1 X141.412 Y91.222 E320.44906
G1 X142.116 Y91.433 E320.51359
G1 X142.4 Y91.48 E320.53887
G1 X142.4 Y134.979 E324.35837
G1 X144 Y134.979 E324.49887
G1 X144 Y91.581 E328.3095
G1 X145.6 Y91.581 E328.44999
G1 X145.6 Y134.979 E332.26063
G1 X146.944 Y134.98 E332.37864
G1 X147.2 Y134.973 E332.40113
G1 X147.2 Y91.587 E336.21071
G1 X147.813 Y91.607 E336.26457
G1 X148.561 Y91.669 E336.33047
G1 X148.8 Y91.698 E336.35161
G1 X148.8 Y134.864 E340.14188
G1 X148.818 Y134.861 E340.14348
G1 X149.519 Y134.753 E340.20576
G1 X149.878 Y134.685 E340.23784
G1 X150.4 Y134.561 E340.28495
G1 X150.4 Y92.001 E344.02201
G1 X150.775 Y92.092 E344.05589
G0 F6000 X150.775 Y92.091
G1 F1200 X151.069 Y92.176 E344.08277
G1 X151.786 Y92.412 E344.14905
G1 X152 Y92.494 E344.16917
G1 X152 Y134.07 E347.81982
G1 X152.036 Y134.056 E347.82321
G1 X152.749 Y133.764 E347.89087
G1 X153.081 Y133.613 E347.92289
G1 X153.6 Y133.351 E347.97394
G1 X153.6 Y93.211 E351.49851
G1 X153.809 Y93.317 E351.51908
G1 X154.116 Y93.489 E351.54998
G1 X154.82 Y93.923 E351.6226
G1 X155.097 Y94.112 E351.65204
G1 X155.2 Y94.188 E351.66328
G1 X155.2 Y132.371 E355.01601
G1 X155.622 Y132.066 E355.06173
G1 X155.904 Y131.845 E355.09319
G1 X156.481 Y131.357 E355.15954
G1 X156.737 Y131.122 E355.19006
G1 X156.8 Y131.06 E355.19782
G1 X156.8 Y95.5 E358.32023
G1 X156.824 Y95.522 E358.32309
G1 X157.352 Y96.053 E358.38884
G1 X157.574 Y96.295 E358.41767
G1 X158.095 Y96.909 E358.48838
G1 X158.307 Y97.182 E358.51873
G1 X158.4 Y97.311 E358.53269
G1 X158.4 Y129.247 E361.33689
G1 X158.678 Y128.867 E361.37823
G1 X158.877 Y128.574 E361.40933
G1 X159.296 Y127.893 E361.47954
G1 X159.474 Y127.578 E361.51131
G1 X159.793 Y126.952 E361.573
G1 X159.957 Y126.602 E361.60694
G1 X160.231 Y125.945 E361.66945
G1 X160.388 Y125.529 E361.70849
G1 X160.613 Y124.841 E361.77205
G1 X160.705 Y124.52 E361.80137
G1 X160.885 Y123.779 E361.86833
G1 X160.961 Y123.41 E361.90141
G1 X161.076 Y122.697 E361.96482
G1 X161.123 Y122.32 E361.99818
G1 X161.188 Y121.513 E362.06927
G1 X161.209 Y120.794 E362.13243
G1 X161.21 Y105.827 E363.44664
G1 X161.192 Y105.123 E363.50847
G1 X161.128 Y104.292 E363.58166
G1 X161.085 Y103.927 E363.61393
G1 X160.977 Y103.242 E363.67482
G1 X160.915 Y102.915 E363.70404
G1 X160.727 Y102.123 E363.77552
G1 X160.626 Y101.763 E363.80835
G1 X160.42 Y101.126 E363.86713
G1 X160.288 Y100.758 E363.90146
G1 X160 Y100.056 E363.96809
G1 X160 Y126.499 E366.28996
;;retract;;
G1 F3600 E358.28996
G0 F600 X160 Y126.499 Z0.54
G0 F6000 X159.875 Y98.781
;TIME_ELAPSED:216.315130

;LAYER:-3
;TYPE:SUPPORT
G1 F3600 E366.28996
G1 F1500 X154.008 Y92.914 E367.01437
G1 X154.029 Y92.925 E367.01644
G1 X154.347 Y93.103 E367.04826
G1 X155.074 Y93.552 E367.12286
G1 X155.363 Y93.749 E367.1534
G1 X155.962 Y94.188 E367.21824
G1 X156.274 Y94.437 E367.25309
G1 X156.854 Y94.934 E367.31978
G1 X157.132 Y95.193 E367.35295
G1 X157.672 Y95.736 E367.41981
G1 X157.917 Y96.004 E367.45151
G1 X158.445 Y96.627 E367.52281
G1 X158.664 Y96.908 E367.55392
G1 X159.124 Y97.547 E367.62266
G1 X159.328 Y97.857 E367.65506
G1 X159.737 Y98.531 E367.72389
G1 X159.897 Y98.819 E367.75265
G1 X160.26 Y99.539 E367.82305
G1 X160.409 Y99.867 E367.85451
G1 X160.701 Y100.58 E367.92177
G1 X160.848 Y100.987 E367.95956
G1 X160.866 Y101.045 E367.96486
G1 X151.747 Y91.926 E369.0908
G1 X151.209 Y91.749 E369.14025
G1 X150.874 Y91.652 E369.1707
G1 X150.114 Y91.467 E369.23899
G1 X149.99 Y91.442 E369.25003
G1 X161.35 Y102.802 E370.65267
G1 X161.357 Y102.831 E370.65528
G1 X161.421 Y103.172 E370.68557
G1 X161.532 Y103.874 E370.74762
G1 X161.577 Y104.257 E370.78129
G1 X161.58 Y104.305 E370.78549
G1 X148.487 Y91.211 E372.40217
G1 X147.734 Y91.151 E372.46812
G1 X147.136 Y91.134 E372.52035
G1 X161.654 Y105.651 E374.31286
G1 X161.66 Y105.827 E374.32823
G1 X161.658 Y106.928 E374.42436
G1 X145.861 Y91.131 E376.37484
G1 X143.415 Y91.13 E376.5884
G1 X143.309 Y91.124 E376.59767
G1 X161.658 Y109.474 E378.86332
G1 X161.658 Y108.201 E378.97446
G1 X144.587 Y91.13 E381.08225
G0 F6000 X141.706 Y90.411
G0 X141.146 Y90.163
G0 X140.601 Y89.832
G0 X140.117 Y89.449
G0 X139.681 Y89.005
G0 X138.99 Y87.956
G0 X138.587 Y86.786
G0 X137.063 Y73.423
G1 F1500 X127.25 Y63.61 E382.29388
G1 X127.341 Y63.643 E382.30233
G1 X128.033 Y63.92 E382.36741
G1 X128.824 Y64.281 E382.44332
G1 X129.266 Y64.508 E382.4867
G1 X129.612 Y64.7 E382.52125
G1 X135.968 Y71.056 E383.30604
G1 X136.25 Y71.575 E383.35761
G1 X136.468 Y72.013 E383.40032
G1 X136.81 Y72.783 E383.47388
G1 X137.019 Y73.301 E383.52265
G1 X137.167 Y73.705 E383.56022
G1 X137.396 Y74.406 E383.6246
G1 X137.537 Y74.9 E383.66945
G1 X137.622 Y75.255 E383.70132
G1 X125.389 Y63.023 E385.2117
G1 X124.907 Y62.918 E385.25476
G1 X123.89 Y62.745 E385.34483
G1 X123.831 Y62.737 E385.35003
G1 X137.93 Y76.836 E387.09086
G1 X138.023 Y77.597 E387.1578
G1 X138.045 Y77.993 E387.19242
G1 X138.067 Y78.246 E387.2146
G1 X122.413 Y62.592 E389.14743
G1 X121.559 Y62.563 E389.22203
G1 X121.111 Y62.562 E389.26114
G1 X138.104 Y79.555 E391.3593
G1 X138.103 Y80.827 E391.47036
G1 X119.838 Y62.562 E393.72557
G1 X118.565 Y62.562 E393.83672
G1 X138.102 Y82.099 E396.24899
G1 X138.1 Y83.37 E396.35996
G1 X117.292 Y62.562 E398.92916
G1 X116.019 Y62.562 E399.0403
G1 X138.1 Y84.642 E401.76663
G1 X138.1 Y84.919 E401.79081
G1 X138.08 Y85.531 E401.84427
G1 X138.084 Y85.9 E401.87649
