; generated by PrusaSlicer 2.7.1+win64 on 2024-04-09 at 15:16:53 UTC

; 

; external perimeters extrusion width = 0.42mm
; perimeters extrusion width = 0.44mm
; infill extrusion width = 0.44mm
; solid infill extrusion width = 0.44mm
; top infill extrusion width = 0.40mm
; support material extrusion width = 0.36mm
; first layer extrusion width = 0.42mm

M201 X500 Y500 Z100 E5000 ; sets maximum accelerations, mm/sec^2
M203 X500 Y500 Z10 E60 ; sets maximum feedrates, mm / sec
M204 S500 T1000 ; sets acceleration (S) and retract acceleration (R), mm/sec^2
M205 X8.00 Y8.00 Z0.40 E5.00 ; sets the jerk limits, mm/sec
M205 S0 T0 ; sets the minimum extruding and travel feed rate, mm/sec

; printing object 相纸盒空间.STL id:0 copy 0
; stop printing object 相纸盒空间.STL id:0 copy 0

;TYPE:Custom
G90 ; use absolute coordinates
M83 ; extruder relative mode
M104 S150 ; set temporary nozzle temp to prevent oozing during homing
M140 S60 ; set final bed temp
G4 S30 ; allow partial nozzle warmup
G28 ; home all axis
G1 Z50 F240
G1 X2.0 Y10 F3000
M104 S205 ; set final nozzle temp
M190 S60 ; wait for bed temp to stabilize
M109 S205 ; wait for nozzle temp to stabilize
G1 Z0.28 F240
G92 E0
G1 X2.0 Y140 E10 F1500 ; prime the nozzle
G1 X2.3 Y140 F5000
G92 E0
G1 X2.3 Y10 E10 F1200 ; prime the nozzle
G92 E0
G21 ; set units to millimeters
G90 ; use absolute coordinates
M83 ; use relative distances for extrusion
; Filament gcode
M107
;LAYER_CHANGE
;Z:0.2
;HEIGHT:0.2
;BEFORE_LAYER_CHANGE
G92 E0
;0.2


G1 E-11 F5400
G1 Z.2 F9000
;AFTER_LAYER_CHANGE
;0.2
G1 X61.712 Y56.384
G1 Z.2
G1 E11 F2400
M204 S500
;TYPE:Skirt/Brim
;WIDTH:0.42
G1 F1200
G1 X62.884 Y55.212 E.05197
G1 X63.804 Y54.558 E.03539
G1 X66.805 Y53.111 E.10446
G1 X68.272 Y52.776 E.04718
G1 X151.728 Y52.776 E2.6167
G1 X153.196 Y53.111 E.04721
G1 X156.196 Y54.558 E.10443
G1 X157.116 Y55.212 E.03539
G1 X158.288 Y56.384 E.05197
G1 X159.129 Y57.782 E.05115
G1 X159.277 Y58.772 E.03139
G1 X159.277 Y161.228 E3.21244
G1 X158.883 Y162.812 E.05118
G1 X158.288 Y163.616 E.03136
G1 X157.116 Y164.788 E.05197
G1 X155.718 Y165.629 E.05115
G1 X154.795 Y165.776 E.0293
G1 X81.001 Y167.224 E2.3142
G1 X70.94 Y167.224 E.31546
G1 X70.105 Y167.119 E.02639
G1 X64.436 Y165.672 E.18345
G1 X62.884 Y164.788 E.056
G1 X61.712 Y163.616 E.05197
G1 X60.871 Y162.218 E.05115
G1 X60.723 Y161.228 E.03139
G1 X60.723 Y58.772 E3.21244
G1 X61.117 Y57.188 E.05118
G1 X61.676 Y56.432 E.02948
G1 E-7.7 F5400
;WIPE_START
G1 F7200
G1 X61.712 Y56.384 E-.04275
G1 X62.884 Y55.212 E-1.18094
G1 X63.804 Y54.558 E-.80425
G1 X65.412 Y53.783 E-1.27206
;WIPE_END
G1 X64.698 Y58.602 F9000
G1 E11 F2400
G1 F1200
G1 X65.254 Y58.088 E.02374
G1 X65.799 Y57.903 E.01805
G1 X154.224 Y57.907 E2.7725
G1 X154.782 Y58.113 E.01865
G1 X155.301 Y58.601 E.02234
G1 X155.597 Y59.298 E.02374
G1 X155.597 Y160.702 E3.17945
G1 X155.302 Y161.398 E.0237
G1 X154.746 Y161.912 E.02374
G1 X154.201 Y162.097 E.01805
G1 X77.299 Y162.097 E2.41121
G1 X76.754 Y161.912 E.01805
G1 X76.005 Y161.181 E.03282
G1 X75.335 Y161.852 E.02973
G1 X74.702 Y162.097 E.02128
G1 X65.798 Y162.097 E.27918
G1 X65.102 Y161.802 E.0237
G1 X64.588 Y161.246 E.02374
G1 X64.403 Y160.701 E.01805
G1 X64.403 Y59.298 E3.17942
G1 X64.674 Y58.658 E.02179
G1 X64.978 Y58.856 F9000
G1 F1200
G1 X65.358 Y58.475 E.01687
G1 X65.831 Y58.28 E.01604
G1 X154.202 Y58.284 E2.77081
G1 X154.592 Y58.44 E.01317
G1 X155.023 Y58.857 E.0188
G1 X155.22 Y59.329 E.01604
G1 X155.22 Y160.671 E3.17751
G1 X155.022 Y161.144 E.01608
G1 X154.642 Y161.525 E.01687
G1 X154.169 Y161.72 E.01604
G1 X77.331 Y161.72 E2.4092
G1 X76.858 Y161.525 E.01604
G1 X76.478 Y161.144 E.01687
G1 X76.28 Y160.671 E.01608
G1 X76.28 Y147.329 E.41833
G1 X76.478 Y146.856 E.01608
G1 X76.857 Y146.476 E.01683
G1 X77.221 Y146.299 E.01269
G1 X142.28 Y146.28 E2.03988
G1 X142.28 Y82.829 E1.98946
G1 X142.477 Y82.356 E.01607
G1 X142.882 Y81.956 E.01785
G1 X143.268 Y81.791 E.01316
G1 X147.28 Y81.78 E.12579
G1 X147.28 Y65.829 E.50013
G1 X147.48 Y65.22 E.0201
G1 X72.52 Y65.22 E2.35032
G1 X72.72 Y65.829 E.0201
G1 X72.72 Y81.78 E.50013
G1 X76.732 Y81.791 E.12579
G1 X77.118 Y81.956 E.01316
G1 X77.523 Y82.356 E.01785
G1 X77.72 Y82.829 E.01607
G1 X77.72 Y130.671 E1.50005
G1 X77.523 Y131.144 E.01607
G1 X77.118 Y131.544 E.01785
G1 X76.732 Y131.709 E.01316
G1 X72.72 Y131.72 E.12579
G1 X72.72 Y154.78 E.72303
G1 X74.779 Y154.799 E.06456
G1 X75.143 Y154.976 E.01269
G1 X75.607 Y155.485 E.0216
G1 X75.72 Y155.829 E.01135
G1 X75.72 Y160.667 E.15169
G1 X75.525 Y161.141 E.01607
G1 X75.118 Y161.544 E.01796
G1 X74.671 Y161.72 E.01506
G1 X65.829 Y161.72 E.27723
G1 X65.356 Y161.522 E.01608
G1 X64.975 Y161.142 E.01687
G1 X64.78 Y160.669 E.01604
G1 X64.78 Y59.329 E3.17744
G1 X64.955 Y58.911 E.01421
G1 X65.257 Y59.11 F9000
G1 F1200
G1 X65.61 Y58.757 E.01565
G1 X65.864 Y58.657 E.00856
G1 X154.182 Y58.664 E2.76915
G1 X154.4 Y58.767 E.00756
G1 X154.743 Y59.11 E.01521
G1 X154.843 Y59.364 E.00856
G1 X154.843 Y160.636 E3.17531
G1 X154.743 Y160.89 E.00856
G1 X154.39 Y161.243 E.01565
G1 X154.136 Y161.343 E.00856
G1 X77.364 Y161.343 E2.40713
G1 X77.11 Y161.243 E.00856
G1 X76.757 Y160.89 E.01565
G1 X76.657 Y160.636 E.00856
G1 X76.657 Y147.364 E.41613
G1 X76.757 Y147.11 E.00856
G1 X77.1 Y146.767 E.01521
G1 X77.318 Y146.664 E.00756
G1 X142.657 Y146.657 E2.04866
G1 X142.657 Y82.864 E2.00018
G1 X142.757 Y82.61 E.00856
G1 X143.11 Y82.257 E.01565
G1 X143.364 Y82.157 E.00856
G1 X147.657 Y82.157 E.1346
G1 X147.657 Y65.864 E.51086
G1 X147.757 Y65.61 E.00856
G1 X148.102 Y65.264 E.01532
G1 X148.361 Y65.131 E.00913
G1 X148.291 Y64.843 E.00929
G1 X71.709 Y64.843 E2.40117
G1 X71.639 Y65.131 E.00929
G1 X71.898 Y65.264 E.00913
G1 X72.243 Y65.61 E.01532
G1 X72.343 Y65.864 E.00856
G1 X72.343 Y82.157 E.51086
G1 X76.636 Y82.157 E.1346
G1 X76.89 Y82.257 E.00856
G1 X77.243 Y82.61 E.01565
G1 X77.343 Y82.864 E.00856
G1 X77.343 Y130.636 E1.49786
G1 X77.243 Y130.89 E.00856
G1 X76.89 Y131.243 E.01565
G1 X76.636 Y131.343 E.00856
G1 X72.343 Y131.343 E.1346
G1 X72.343 Y155.157 E.74667
G1 X74.65 Y155.157 E.07233
G1 X74.9 Y155.267 E.00856
G1 X75.261 Y155.637 E.01621
G1 X75.343 Y155.864 E.00757
G1 X75.336 Y160.682 E.15107
G1 X75.233 Y160.9 E.00756
G1 X74.89 Y161.243 E.01521
G1 X74.636 Y161.343 E.00856
G1 X65.864 Y161.343 E.27504
G1 X65.61 Y161.243 E.00856
G1 X65.257 Y160.89 E.01565
G1 X65.157 Y160.636 E.00856
G1 X65.157 Y59.364 E3.17531
G1 X65.235 Y59.166 E.00667
G1 X65.563 Y59.337 F9000
G1 F1200
G1 X65.906 Y59.034 E.01435
G1 X154.094 Y59.034 E2.76507
G1 X154.466 Y59.406 E.0165
G1 X154.437 Y160.663 E3.17484
G1 X154.094 Y160.966 E.01435
G1 X77.406 Y160.966 E2.4045
G1 X77.034 Y160.594 E.0165
G1 X77.034 Y147.406 E.4135
G1 X77.406 Y147.034 E.0165
G1 X143.034 Y147.034 E2.05772
G1 X143.034 Y82.906 E2.01069
G1 X143.406 Y82.534 E.0165
G1 X148.034 Y82.534 E.14511
G1 X148.034 Y65.906 E.52136
G1 X148.406 Y65.534 E.0165
G1 X149.534 Y65.534 E.03537
G1 X149.534 Y64.466 E.03349
G1 X70.466 Y64.466 E2.47912
G1 X70.466 Y65.534 E.03349
G1 X71.594 Y65.534 E.03537
G1 X71.966 Y65.906 E.0165
G1 X71.966 Y82.534 E.52136
G1 X76.594 Y82.534 E.14511
G1 X76.966 Y82.906 E.0165
G1 X76.966 Y130.594 E1.49522
G1 X76.594 Y130.966 E.0165
G1 X71.966 Y130.966 E.14511
G1 X71.966 Y155.534 E.77031
G1 X74.594 Y155.534 E.0824
G1 X74.937 Y155.837 E.01435
G1 X74.966 Y160.594 E.14916
G1 X74.594 Y160.966 E.0165
G1 X65.837 Y160.937 E.27457
G1 X65.534 Y160.594 E.01435
G1 X65.563 Y59.397 E3.17296
G1 X65.911 Y59.522 F9000
G1 F1200
G1 X66.022 Y59.411 E.00492
G1 X153.978 Y59.411 E2.7578
G1 X154.089 Y59.522 E.00492
G1 X154.089 Y160.478 E3.1654
G1 X153.978 Y160.589 E.00492
G1 X77.522 Y160.589 E2.39722
G1 X77.411 Y160.478 E.00492
G1 X77.411 Y147.522 E.40623
G1 X77.522 Y147.411 E.00492
G1 X143.411 Y147.411 E2.0659
G1 X143.411 Y83.022 E2.01887
G1 X143.522 Y82.911 E.00492
G1 X148.411 Y82.911 E.15329
G1 X148.411 Y66.022 E.52954
G1 X148.522 Y65.911 E.00492
G1 X149.911 Y65.911 E.04355
G1 X149.911 Y64.089 E.05713
G1 X70.089 Y64.089 E2.50276
G1 X70.089 Y65.911 E.05713
G1 X71.478 Y65.911 E.04355
G1 X71.589 Y66.022 E.00492
G1 X71.589 Y82.911 E.52954
G1 X76.478 Y82.911 E.15329
G1 X76.589 Y83.022 E.00492
G1 X76.589 Y130.478 E1.48795
G1 X76.478 Y130.589 E.00492
G1 X71.589 Y130.589 E.15329
G1 X71.589 Y155.911 E.79395
G1 X74.478 Y155.911 E.09058
G1 X74.589 Y156.022 E.00492
G1 X74.589 Y160.478 E.13971
G1 X74.478 Y160.589 E.00492
G1 X66.022 Y160.589 E.26513
G1 X65.911 Y160.478 E.00492
G1 X65.911 Y59.582 E3.16352
G1 E-7.7 F5400
;WIPE_START
G1 F7200
G1 X65.911 Y59.522 E-.04275
G1 X66.022 Y59.411 E-.11185
G1 X70.437 Y59.411 E-3.1454
;WIPE_END
G1 X73.097 Y65.597 F9000
G1 E11 F2400
G1 F1200
G1 X146.903 Y65.597 E2.31414
G1 X146.903 Y81.403 E.49559
G1 X143.172 Y81.425 E.11698
G1 X142.664 Y81.648 E.0174
G1 X142.198 Y82.102 E.0204
G1 X141.903 Y82.798 E.0237
G1 X141.903 Y145.903 E1.97861
G1 X77.284 Y145.906 E2.02608
G1 X76.614 Y146.186 E.02277
G1 X76.175 Y146.631 E.0196
G1 X75.913 Y147.24 E.02079
G1 X75.903 Y155.185 E.24911
G1 X75.34 Y154.653 E.02429
G1 X74.872 Y154.433 E.01621
G1 X73.097 Y154.403 E.05566
G1 X73.097 Y132.097 E.69939
G1 X76.828 Y132.075 E.11698
G1 X77.336 Y131.852 E.0174
G1 X77.802 Y131.398 E.0204
G1 X78.097 Y130.702 E.0237
G1 X78.097 Y82.798 E1.502
G1 X77.802 Y82.102 E.0237
G1 X77.336 Y81.648 E.0204
G1 X76.828 Y81.425 E.0174
G1 X73.097 Y81.403 E.11698
G1 X73.097 Y65.657 E.4937
; printing object 相纸盒空间.STL id:0 copy 0
G1 E-7.7 F5400
;WIPE_START
G1 F7200
G1 X73.097 Y65.597 E-.04275
G1 X77.669 Y65.597 E-3.25725
;WIPE_END
G1 X80.935 Y163.658 F9000
G1 E11 F2400
;TYPE:Support material
G1 F1200
G1 X71.018 Y163.658 E.31094
G1 X71.018 Y162.71 E.02972
G1 X80.935 Y162.71 E.31094
G1 X80.935 Y163.602 E.02797
G1 X80.253 Y163.489 F9000
G1 F1200
G1 X80.253 Y163.049 E.0138
G1 X79.834 Y163.049 E.01314
G1 X79.834 Y163.319 E.00847
G1 X79.415 Y163.319 E.01314
G1 X79.415 Y163.049 E.00847
G1 X78.996 Y163.049 E.01314
G1 X78.996 Y163.319 E.00847
G1 X78.577 Y163.319 E.01314
G1 X78.577 Y163.049 E.00847
G1 X78.158 Y163.049 E.01314
G1 X78.158 Y163.319 E.00847
G1 X77.739 Y163.319 E.01314
G1 X77.739 Y163.049 E.00847
G1 X77.32 Y163.049 E.01314
G1 X77.32 Y163.319 E.00847
G1 X76.901 Y163.319 E.01314
G1 X76.901 Y163.049 E.00847
G1 X76.482 Y163.049 E.01314
G1 X76.482 Y163.319 E.00847
G1 X76.063 Y163.319 E.01314
G1 X76.063 Y163.049 E.00847
G1 X75.644 Y163.049 E.01314
G1 X75.644 Y163.319 E.00847
G1 X75.225 Y163.319 E.01314
G1 X75.225 Y163.049 E.00847
G1 X74.806 Y163.049 E.01314
G1 X74.806 Y163.319 E.00847
G1 X74.387 Y163.319 E.01314
G1 X74.387 Y163.049 E.00847
G1 X73.968 Y163.049 E.01314
G1 X73.968 Y163.319 E.00847
G1 X73.549 Y163.319 E.01314
G1 X73.549 Y163.049 E.00847
G1 X73.13 Y163.049 E.01314
G1 X73.13 Y163.319 E.00847
G1 X72.711 Y163.319 E.01314
G1 X72.711 Y163.049 E.00847
G1 X72.292 Y163.049 E.01314
G1 X72.292 Y163.319 E.00847
G1 X71.873 Y163.319 E.01314
G1 X71.873 Y163.049 E.00847
G1 X71.454 Y163.049 E.01314
G1 X71.454 Y163.489 E.0138
G1 E-7.7 F5400
;WIPE_START
G1 F7200
G1 X71.454 Y163.049 E-.3135
G1 X71.873 Y163.049 E-.29854
G1 X71.873 Y163.319 E-.19238
G1 X72.292 Y163.319 E-.29854
G1 X72.292 Y163.049 E-.19238
G1 X72.711 Y163.049 E-.29854
G1 X72.711 Y163.319 E-.19238
G1 X73.13 Y163.319 E-.29854
G1 X73.13 Y163.049 E-.19238
G1 X73.549 Y163.049 E-.29854
G1 X73.549 Y163.319 E-.19238
G1 X73.968 Y163.319 E-.29854
G1 X73.968 Y163.049 E-.19238
G1 X74.026 Y163.049 E-.04098
;WIPE_END
G1 X75.29 Y153.79 F9000
G1 E11 F2400
G1 F1200
G1 X73.71 Y153.79 E.04954
G1 X73.71 Y152.407 E.04336
G1 X75.29 Y152.407 E.04954
G1 X75.29 Y153.733 E.04158
G1 X74.806 Y153.62 F9000
G1 F1200
G1 X74.806 Y152.747 E.02737
G1 X74.387 Y152.747 E.01314
G1 X74.387 Y153.62 E.02737
G1 E-7.7 F5400
;WIPE_START
G1 F7200
G1 X74.387 Y152.747 E-.62201
G1 X74.806 Y152.747 E-.29854
G1 X74.806 Y153.62 E-.62201
;WIPE_END
G1 E-1.75744 F5400
G1 X146.29 Y67.593 F9000
G1 E11 F2400
G1 F1200
G1 X73.71 Y67.593 E2.27569
G1 X73.71 Y66.21 E.04336
G1 X146.29 Y66.21 E2.27569
G1 X146.29 Y67.536 E.04158
G1 X145.613 Y67.423 F9000
G1 F1200
G1 X145.613 Y66.549 E.0274
G1 X145.194 Y66.549 E.01314
G1 X145.194 Y67.253 E.02207
G1 X144.775 Y67.253 E.01314
G1 X144.775 Y66.549 E.02207
G1 X144.356 Y66.549 E.01314
G1 X144.356 Y67.253 E.02207
G1 X143.937 Y67.253 E.01314
G1 X143.937 Y66.549 E.02207
G1 X143.518 Y66.549 E.01314
G1 X143.518 Y67.253 E.02207
G1 X143.099 Y67.253 E.01314
G1 X143.099 Y66.549 E.02207
G1 X142.68 Y66.549 E.01314
G1 X142.68 Y67.253 E.02207
G1 X142.261 Y67.253 E.01314
G1 X142.261 Y66.549 E.02207
G1 X141.842 Y66.549 E.01314
G1 X141.842 Y67.253 E.02207
G1 X141.423 Y67.253 E.01314
G1 X141.423 Y66.549 E.02207
G1 X141.004 Y66.549 E.01314
G1 X141.004 Y67.253 E.02207
G1 X140.585 Y67.253 E.01314
G1 X140.585 Y66.549 E.02207
G1 X140.166 Y66.549 E.01314
G1 X140.166 Y67.253 E.02207
G1 X139.747 Y67.253 E.01314
G1 X139.747 Y66.549 E.02207
G1 X139.328 Y66.549 E.01314
G1 X139.328 Y67.253 E.02207
G1 X138.909 Y67.253 E.01314
G1 X138.909 Y66.549 E.02207
G1 X138.49 Y66.549 E.01314
G1 X138.49 Y67.253 E.02207
G1 X138.071 Y67.253 E.01314
G1 X138.071 Y66.549 E.02207
G1 X137.652 Y66.549 E.01314
G1 X137.652 Y67.253 E.02207
G1 X137.234 Y67.253 E.01311
G1 X137.234 Y66.549 E.02207
G1 X136.815 Y66.549 E.01314
G1 X136.815 Y67.253 E.02207
G1 X136.396 Y67.253 E.01314
G1 X136.396 Y66.549 E.02207
G1 X135.977 Y66.549 E.01314
G1 X135.977 Y67.253 E.02207
G1 X135.558 Y67.253 E.01314
G1 X135.558 Y66.549 E.02207
G1 X135.139 Y66.549 E.01314
G1 X135.139 Y67.253 E.02207
G1 X134.72 Y67.253 E.01314
G1 X134.72 Y66.549 E.02207
G1 X134.301 Y66.549 E.01314
G1 X134.301 Y67.253 E.02207
G1 X133.882 Y67.253 E.01314
G1 X133.882 Y66.549 E.02207
G1 X133.463 Y66.549 E.01314
G1 X133.463 Y67.253 E.02207
G1 X133.044 Y67.253 E.01314
G1 X133.044 Y66.549 E.02207
G1 X132.625 Y66.549 E.01314
G1 X132.625 Y67.253 E.02207
G1 X132.206 Y67.253 E.01314
G1 X132.206 Y66.549 E.02207
G1 X131.787 Y66.549 E.01314
G1 X131.787 Y67.253 E.02207
G1 X131.368 Y67.253 E.01314
G1 X131.368 Y66.549 E.02207
G1 X130.949 Y66.549 E.01314
G1 X130.949 Y67.253 E.02207
G1 X130.53 Y67.253 E.01314
G1 X130.53 Y66.549 E.02207
G1 X130.111 Y66.549 E.01314
G1 X130.111 Y67.253 E.02207
G1 X129.692 Y67.253 E.01314
G1 X129.692 Y66.549 E.02207
G1 X129.273 Y66.549 E.01314
G1 X129.273 Y67.253 E.02207
G1 X128.854 Y67.253 E.01314
G1 X128.854 Y66.549 E.02207
G1 X128.435 Y66.549 E.01314
G1 X128.435 Y67.253 E.02207
G1 X128.016 Y67.253 E.01314
G1 X128.016 Y66.549 E.02207
G1 X127.597 Y66.549 E.01314
G1 X127.597 Y67.253 E.02207
G1 X127.178 Y67.253 E.01314
G1 X127.178 Y66.549 E.02207
G1 X126.759 Y66.549 E.01314
G1 X126.759 Y67.253 E.02207
G1 X126.34 Y67.253 E.01314
G1 X126.34 Y66.549 E.02207
G1 X125.921 Y66.549 E.01314
G1 X125.921 Y67.253 E.02207
G1 X125.502 Y67.253 E.01314
G1 X125.502 Y66.549 E.02207
G1 X125.083 Y66.549 E.01314
G1 X125.083 Y67.253 E.02207
G1 X124.664 Y67.253 E.01314
G1 X124.664 Y66.549 E.02207
G1 X124.245 Y66.549 E.01314
G1 X124.245 Y67.253 E.02207
G1 X123.826 Y67.253 E.01314
G1 X123.826 Y66.549 E.02207
G1 X123.407 Y66.549 E.01314
G1 X123.407 Y67.253 E.02207
G1 X122.988 Y67.253 E.01314
G1 X122.988 Y66.549 E.02207
G1 X122.569 Y66.549 E.01314
G1 X122.569 Y67.253 E.02207
G1 X122.15 Y67.253 E.01314
G1 X122.15 Y66.549 E.02207
G1 X121.731 Y66.549 E.01314
G1 X121.731 Y67.253 E.02207
G1 X121.312 Y67.253 E.01314
G1 X121.312 Y66.549 E.02207
G1 X120.893 Y66.549 E.01314
G1 X120.893 Y67.253 E.02207
G1 X120.474 Y67.253 E.01314
G1 X120.474 Y66.549 E.02207
G1 X120.055 Y66.549 E.01314
G1 X120.055 Y67.253 E.02207
G1 X119.636 Y67.253 E.01314
G1 X119.636 Y66.549 E.02207
G1 X119.217 Y66.549 E.01314
G1 X119.217 Y67.253 E.02207
G1 X118.799 Y67.253 E.01311
G1 X118.799 Y66.549 E.02207
G1 X118.38 Y66.549 E.01314
G1 X118.38 Y67.253 E.02207
G1 X117.961 Y67.253 E.01314
G1 X117.961 Y66.549 E.02207
G1 X117.542 Y66.549 E.01314
G1 X117.542 Y67.253 E.02207
G1 X117.123 Y67.253 E.01314
G1 X117.123 Y66.549 E.02207
G1 X116.704 Y66.549 E.01314
G1 X116.704 Y67.253 E.02207
G1 X116.285 Y67.253 E.01314
G1 X116.285 Y66.549 E.02207
G1 X115.866 Y66.549 E.01314
G1 X115.866 Y67.253 E.02207
G1 X115.447 Y67.253 E.01314
G1 X115.447 Y66.549 E.02207
G1 X115.028 Y66.549 E.01314
G1 X115.028 Y67.253 E.02207
G1 X114.609 Y67.253 E.01314
