; generated by PrusaSlicer 2.7.1+win64 on 2024-03-24 at 11:55:31 UTC

; 

; external perimeters extrusion width = 0.42mm
; perimeters extrusion width = 0.44mm
; infill extrusion width = 0.44mm
; solid infill extrusion width = 0.44mm
; top infill extrusion width = 0.40mm
; support material extrusion width = 0.36mm
; first layer extrusion width = 0.42mm

M201 X500 Y500 Z100 E5000 ; sets maximum accelerations, mm/sec^2
M203 X500 Y500 Z10 E60 ; sets maximum feedrates, mm / sec
M204 S500 T1000 ; sets acceleration (S) and retract acceleration (R), mm/sec^2
M205 X8.00 Y8.00 Z0.40 E5.00 ; sets the jerk limits, mm/sec
M205 S0 T0 ; sets the minimum extruding and travel feed rate, mm/sec

; printing object ControllerCase.STL id:0 copy 0
; stop printing object ControllerCase.STL id:0 copy 0

;TYPE:Custom
G90 ; use absolute coordinates
M83 ; extruder relative mode
M104 S150 ; set temporary nozzle temp to prevent oozing during homing
M140 S60 ; set final bed temp
G4 S30 ; allow partial nozzle warmup
G28 ; home all axis
G1 Z50 F240
G1 X2.0 Y10 F3000
M104 S205 ; set final nozzle temp
M190 S60 ; wait for bed temp to stabilize
M109 S205 ; wait for nozzle temp to stabilize
G1 Z0.28 F240
G92 E0
G1 X2.0 Y140 E10 F1500 ; prime the nozzle
G1 X2.3 Y140 F5000
G92 E0
G1 X2.3 Y10 E10 F1200 ; prime the nozzle
G92 E0
G21 ; set units to millimeters
G90 ; use absolute coordinates
M83 ; use relative distances for extrusion
; Filament gcode
M107
;LAYER_CHANGE
;Z:0.2
;HEIGHT:0.2
;BEFORE_LAYER_CHANGE
G92 E0
;0.2


G1 E-11 F5400
G1 Z.2 F9000
;AFTER_LAYER_CHANGE
;0.2
G1 X93.748 Y64.274
G1 Z.2
G1 E11 F2400
M204 S500
;TYPE:Skirt/Brim
;WIDTH:0.42
G1 F1200
G1 X94.92 Y63.103 E.05195
G1 X96.318 Y62.263 E.05114
G1 X97.307 Y62.115 E.03135
G1 X118.526 Y62.115 E.66531
G1 X119.498 Y62.149 E.0305
G1 X120.361 Y62.286 E.0274
G1 X121.62 Y62.656 E.04114
G1 X123.06 Y63.36 E.05026
G1 X124.312 Y64.287 E.04884
G1 X125.336 Y65.354 E.04637
G1 X126.298 Y66.817 E.0549
G1 X126.698 Y67.677 E.02974
G1 X127.024 Y68.69 E.03337
G1 X127.273 Y70.226 E.04879
G1 X124.526 Y146.38 E2.38931
G1 X124.397 Y147.19 E.02572
G1 X122.337 Y154.351 E.23363
G1 X121.409 Y155.874 E.05592
G1 X120.253 Y156.964 E.04982
G1 X119.668 Y157.407 E.02301
G1 X117.436 Y158.741 E.08153
G1 X115.704 Y159.219 E.05634
G1 X98.959 Y159.219 E.52503
G1 X97.376 Y158.825 E.05115
G1 X96.461 Y158.119 E.03624
G1 X95.864 Y157.311 E.0315
G1 X93.41 Y152.613 E.16619
G1 X92.977 Y151.349 E.04189
G1 X92.724 Y149.635 E.05432
G1 X91.47 Y89.088 E1.89882
G1 X91.469 Y73.609 E.48533
G1 X91.526 Y72.992 E.01943
G1 X92.815 Y66.046 E.22151
G1 X93.721 Y64.327 E.06093
G1 E-7.7 F5400
;WIPE_START
G1 F7200
G1 X93.748 Y64.274 E-.04238
G1 X94.92 Y63.103 E-1.18044
G1 X96.318 Y62.263 E-1.16205
G1 X97.307 Y62.115 E-.71251
G1 X97.591 Y62.115 E-.20262
;WIPE_END
G1 X97.5 Y89.207 F9000
G1 E11 F2400
G1 F1200
G1 X98.24 Y89.096 E.02346
G1 X100.745 Y89.874 E.08224
G1 X101.087 Y90.127 E.01334
G1 X101.41 Y90.531 E.01622
G1 X101.619 Y91.128 E.01983
G1 X101.6 Y149.011 E1.81488
G1 X103.503 Y149.055 E.05968
G1 X103.922 Y149.259 E.01461
G1 X104.541 Y149.948 E.02904
G1 X104.682 Y150.406 E.01503
G1 X104.638 Y153.025 E.08213
G1 X104.399 Y153.494 E.0165
G1 X103.983 Y153.91 E.01845
G1 X103.288 Y154.205 E.02367
G1 X100.582 Y154.147 E.08486
G1 X99.81 Y153.955 E.02494
G1 X99.136 Y153.667 E.02298
G1 X98.488 Y153.266 E.02389
G1 X97.875 Y152.743 E.02526
G1 X97.277 Y152.032 E.02913
G1 X96.829 Y151.253 E.02818
G1 X96.574 Y150.564 E.02304
G1 X96.427 Y149.836 E.02329
G1 X96.426 Y90.482 E1.861
G1 X96.644 Y89.898 E.01955
G1 X96.848 Y89.661 E.0098
G1 X97.451 Y89.241 E.02304
G1 X97.657 Y89.551 F9000
G1 F1200
G1 X98.057 Y89.463 E.01284
G1 X100.556 Y90.202 E.08171
G1 X100.809 Y90.383 E.00975
G1 X101.096 Y90.741 E.01439
G1 X101.242 Y91.16 E.01391
G1 X101.223 Y149.257 E1.82159
G1 X101.35 Y149.388 E.00572
G1 X103.364 Y149.407 E.06315
G1 X103.728 Y149.584 E.01269
G1 X104.192 Y150.093 E.0216
G1 X104.305 Y150.437 E.01135
G1 X104.286 Y152.887 E.07682
G1 X104.109 Y153.251 E.01269
G1 X103.73 Y153.63 E.01681
G1 X103.256 Y153.828 E.01611
G1 X100.657 Y153.777 E.08151
G1 X99.944 Y153.602 E.02302
G1 X99.298 Y153.326 E.02203
G1 X98.7 Y152.954 E.02208
G1 X98.153 Y152.488 E.02253
G1 X97.595 Y151.828 E.0271
G1 X97.177 Y151.106 E.02616
G1 X96.933 Y150.447 E.02203
G1 X96.802 Y149.799 E.02073
G1 X96.803 Y90.505 E1.85912
G1 X97.085 Y89.955 E.01938
G1 X97.608 Y89.585 E.02009
G1 X97.822 Y89.89 F9000
G1 F1200
G1 X98.133 Y89.843 E.00986
G1 X100.375 Y90.533 E.07355
G1 X100.781 Y90.952 E.01829
G1 X100.865 Y91.191 E.00794
G1 X100.846 Y149.35 E1.82353
G1 X101.012 Y149.603 E.00949
G1 X101.236 Y149.748 E.00837
G1 X103.267 Y149.772 E.06369
G1 X103.485 Y149.875 E.00756
G1 X103.847 Y150.245 E.01623
G1 X103.928 Y150.472 E.00756
G1 X103.928 Y152.758 E.07168
G1 X103.819 Y153.008 E.00855
G1 X103.475 Y153.351 E.01523
G1 X103.221 Y153.451 E.00856
G1 X100.731 Y153.407 E.07808
G1 X100.077 Y153.249 E.0211
G1 X99.46 Y152.985 E.02104
G1 X98.43 Y152.232 E.04
G1 X97.912 Y151.623 E.02507
G1 X97.525 Y150.959 E.0241
G1 X97.178 Y149.762 E.03908
G1 X97.18 Y90.527 E1.85727
G1 X97.324 Y90.248 E.00984
G1 X97.773 Y89.925 E.01734
G1 X98.018 Y90.265 F9000
G1 F1200
G1 X98.077 Y90.222 E.00229
G1 X100.207 Y90.872 E.06983
G1 X100.488 Y91.223 E.0141
G1 X100.469 Y149.392 E1.82385
G1 X100.732 Y149.855 E.0167
G1 X101.121 Y150.112 E.01462
G1 X103.179 Y150.142 E.06453
G1 X103.522 Y150.445 E.01435
G1 X103.551 Y152.702 E.07077
G1 X103.179 Y153.074 E.0165
G1 X100.776 Y153.033 E.07536
G1 X99.646 Y152.657 E.03734
G1 X98.686 Y151.954 E.03731
G1 X98.229 Y151.418 E.02209
G1 X97.871 Y150.81 E.02212
G1 X97.553 Y149.724 E.03548
G1 X97.557 Y90.595 E1.85395
G1 X97.969 Y90.3 E.01589
G1 X98.091 Y90.625 F9000
G1 F1200
G1 X98.428 Y90.738 E.01114
G1 X100.028 Y91.218 E.05238
G1 X100.111 Y91.321 E.00415
G1 X100.092 Y149.458 E1.82284
G1 X100.2 Y149.759 E.01003
G1 X100.471 Y150.128 E.01435
G1 X101.026 Y150.479 E.02059
G1 X103.063 Y150.519 E.06388
G1 X103.174 Y150.63 E.00492
G1 X103.174 Y152.586 E.06133
G1 X103.063 Y152.697 E.00492
G1 X100.822 Y152.658 E.07028
G1 X99.833 Y152.329 E.03268
G1 X98.942 Y151.678 E.0346
G1 X98.545 Y151.212 E.01919
G1 X98.217 Y150.659 E.02016
G1 X97.928 Y149.685 E.03186
G1 X97.934 Y90.738 E1.84824
G1 X98.043 Y90.66 E.0042
G1 E-7.7 F5400
;WIPE_START
G1 F7200
G1 X98.091 Y90.625 E-.04233
G1 X98.428 Y90.738 E-.25325
G1 X100.028 Y91.218 E-1.19019
G1 X100.111 Y91.321 E-.09425
G1 X100.11 Y93.735 E-1.71998
;WIPE_END
G1 X98.34 Y73.866 F9000
G1 E11 F2400
G1 F1200
G1 X97.717 Y73.846 E.01954
G1 X97.427 Y73.728 E.00982
G1 X96.789 Y73.255 E.0249
G1 X96.448 Y72.589 E.02346
G1 X96.439 Y67.205 E.16881
G1 X96.723 Y66.505 E.02369
G1 X97.2 Y66.04 E.02089
G1 X97.833 Y65.795 E.02128
G1 X118.995 Y65.8 E.66352
G1 X119.798 Y65.93 E.02551
G1 X120.47 Y66.156 E.02223
G1 X121.106 Y66.48 E.02238
G1 X121.793 Y66.973 E.02651
G1 X122.39 Y67.568 E.02643
G1 X122.904 Y68.282 E.02758
G1 X123.261 Y68.995 E.025
G1 X123.503 Y69.777 E.02567
G1 X123.606 Y70.581 E.02541
G1 X119.79 Y136.233 E2.06195
G1 X119.804 Y137.707 E.04622
G1 X119.619 Y140.025 E.07291
G1 X119.658 Y140.218 E.00617
G1 X119.501 Y142.809 E.08139
G1 X119.321 Y144.272 E.04622
G1 X118.819 Y152.881 E.27039
G1 X118.516 Y153.543 E.02283
G1 X118.045 Y153.977 E.02008
G1 X117.553 Y154.184 E.01674
G1 X112.383 Y154.205 E.1621
G1 X111.688 Y153.91 E.02367
G1 X111.272 Y153.494 E.01845
G1 X111.033 Y153.025 E.0165
G1 X111.018 Y150.238 E.08739
G1 X111.273 Y149.721 E.01807
G1 X111.699 Y149.294 E.01891
G1 X112.121 Y149.072 E.01495
G1 X112.399 Y149.011 E.00892
G1 X113.843 Y149.011 E.04528
G1 X114.23 Y142.767 E.19615
G1 X114.358 Y142.453 E.01063
G1 X114.683 Y142.003 E.0174
G1 X115.61 Y141.417 E.03439
G1 X116.056 Y140.81 E.02362
G1 X116.359 Y140.032 E.02618
G1 X116.255 Y139.503 E.0169
G1 X115.959 Y138.837 E.02285
G1 X115.627 Y138.386 E.01756
G1 X114.895 Y137.808 E.02924
G1 X114.654 Y137.363 E.01587
G1 X114.55 Y136.871 E.01577
G1 X118.399 Y70.992 E2.06911
G1 X116.444 Y70.989 E.0613
G1 X115.38 Y70.749 E.0342
G1 X114.787 Y70.796 E.01865
G1 X114.029 Y70.989 E.02452
G1 X101.624 Y70.989 E.38895
G1 X101.598 Y72.049 E.03325
G1 X101.411 Y72.463 E.01424
G1 X100.933 Y72.998 E.02249
G1 X100.556 Y73.194 E.01332
G1 X98.398 Y73.849 E.07071
G1 X98.288 Y73.488 F9000
G1 F1200
G1 X98.241 Y73.502 E.00154
G1 X97.795 Y73.477 E.01401
G1 X97.065 Y72.997 E.02739
G1 X96.818 Y72.516 E.01695
G1 X96.816 Y67.224 E.16593
G1 X97.011 Y66.75 E.01607
G1 X97.418 Y66.348 E.01794
G1 X97.865 Y66.172 E.01506
G1 X118.98 Y66.177 E.66205
G1 X119.693 Y66.292 E.02264
G1 X120.336 Y66.509 E.02128
G1 X120.921 Y66.809 E.02061
G1 X121.537 Y67.251 E.02377
G1 X122.112 Y67.824 E.02545
G1 X122.589 Y68.488 E.02563
G1 X122.916 Y69.149 E.02312
G1 X123.131 Y69.842 E.02275
G1 X123.216 Y71.097 E.03944
G1 X119.413 Y136.218 E2.0453
G1 X119.427 Y137.697 E.04638
G1 X119.235 Y140.053 E.07412
G1 X119.28 Y140.229 E.0057
G1 X119.125 Y142.775 E.07998
G1 X118.945 Y144.244 E.0464
G1 X118.444 Y152.841 E.27001
G1 X118.236 Y153.289 E.01549
G1 X117.834 Y153.664 E.01724
G1 X117.46 Y153.818 E.01268
G1 X112.415 Y153.828 E.15818
G1 X112.07 Y153.715 E.01138
G1 X111.562 Y153.251 E.02157
G1 X111.385 Y152.887 E.01269
G1 X111.366 Y150.437 E.07682
G1 X111.562 Y149.965 E.01602
G1 X111.944 Y149.583 E.01694
G1 X112.267 Y149.42 E.01134
G1 X114.198 Y149.388 E.06055
G1 X114.592 Y142.875 E.20458
G1 X114.941 Y142.279 E.02166
G1 X115.884 Y141.681 E.03501
G1 X116.381 Y141.004 E.02633
G1 X116.752 Y140.077 E.03131
G1 X116.62 Y139.406 E.02144
G1 X116.286 Y138.65 E.02591
G1 X115.866 Y138.092 E.0219
G1 X115.214 Y137.604 E.02553
G1 X114.999 Y137.208 E.01413
G1 X114.928 Y136.868 E.01089
G1 X118.788 Y70.807 E2.07483
G1 X118.65 Y70.615 E.00741
G1 X116.469 Y70.612 E.06838
G1 X115.408 Y70.372 E.03411
G1 X114.71 Y70.426 E.02195
G1 X114.004 Y70.612 E.02289
G1 X101.254 Y70.612 E.39977
G1 X101.229 Y71.953 E.04205
G1 X101.106 Y72.241 E.00982
G1 X100.721 Y72.684 E.0184
G1 X100.447 Y72.832 E.00976
G1 X98.345 Y73.47 E.06888
G1 X98.229 Y73.109 F9000
G1 F1200
G1 X98.142 Y73.137 E.00287
G1 X97.873 Y73.107 E.00849
G1 X97.333 Y72.732 E.02061
G1 X97.19 Y72.452 E.00986
G1 X97.193 Y67.242 E.16336
G1 X97.302 Y66.992 E.00855
G1 X97.646 Y66.649 E.01523
G1 X97.9 Y66.549 E.00856
G1 X118.965 Y66.554 E.66048
G1 X119.588 Y66.655 E.01979
G1 X120.736 Y67.138 E.03905
G1 X121.304 Y67.547 E.02195
G1 X121.834 Y68.079 E.02355
G1 X122.272 Y68.694 E.02367
G1 X122.571 Y69.301 E.02122
G1 X122.766 Y69.937 E.02086
G1 X122.852 Y70.592 E.02071
G1 X119.036 Y136.202 E2.06063
G1 X119.05 Y137.687 E.04656
G1 X118.849 Y140.102 E.07598
G1 X118.901 Y140.251 E.00495
G1 X118.749 Y142.741 E.07822
G1 X118.569 Y144.217 E.04662
G1 X118.068 Y152.802 E.26963
G1 X117.952 Y153.039 E.00827
G1 X117.613 Y153.358 E.0146
G1 X117.367 Y153.451 E.00825
G1 X112.45 Y153.451 E.15417
G1 X112.195 Y153.351 E.00859
G1 X111.852 Y153.008 E.01521
G1 X111.749 Y152.79 E.00756
G1 X111.749 Y150.426 E.07412
G1 X111.852 Y150.208 E.00756
G1 X112.185 Y149.875 E.01477
G1 X112.404 Y149.772 E.00759
G1 X114.553 Y149.765 E.06738
G1 X114.956 Y142.978 E.21318
G1 X115.204 Y142.55 E.01551
G1 X115.849 Y142.19 E.02316
G1 X116.152 Y141.95 E.01212
G1 X116.432 Y141.588 E.01435
G1 X116.709 Y141.192 E.01515
G1 X117.144 Y140.116 E.03639
G1 X116.986 Y139.309 E.02578
G1 X116.614 Y138.464 E.02895
G1 X116.378 Y138.072 E.01435
G1 X116.105 Y137.798 E.01213
G1 X115.507 Y137.365 E.02315
G1 X115.306 Y136.865 E.0169
G1 X119.168 Y70.761 E2.07618
G1 X119.058 Y70.507 E.00868
G1 X118.711 Y70.238 E.01377
G1 X116.496 Y70.235 E.06945
G1 X115.437 Y69.995 E.03405
G1 X114.631 Y70.057 E.02535
G1 X113.978 Y70.235 E.02122
G1 X100.878 Y70.235 E.41074
G1 X100.865 Y71.849 E.05061
G1 X100.503 Y72.375 E.02002
G1 X98.286 Y73.091 E.07305
G1 X98.169 Y72.694 F9000
G1 F1200
G1 X97.997 Y72.745 E.00563
G1 X97.567 Y72.385 E.01758
G1 X97.57 Y67.298 E.1595
G1 X97.942 Y66.926 E.0165
G1 X118.95 Y66.931 E.65869
G1 X120.018 Y67.193 E.03448
G1 X121.069 Y67.843 E.03875
G1 X121.555 Y68.333 E.02164
G1 X121.955 Y68.899 E.02173
G1 X122.394 Y70.003 E.03725
G1 X122.463 Y71.059 E.03318
G1 X118.66 Y136.186 E2.04549
G1 X118.673 Y137.677 E.04675
G1 X118.49 Y139.932 E.07094
G1 X118.331 Y140.077 E.00675
G1 X118.518 Y140.327 E.00979
G1 X118.374 Y142.707 E.07476
G1 X118.193 Y144.189 E.04681
G1 X117.695 Y152.726 E.26813
G1 X117.327 Y153.074 E.01588
G1 X112.422 Y153.045 E.1538
G1 X112.12 Y152.702 E.01433
G1 X112.12 Y150.514 E.0686
G1 X112.492 Y150.142 E.0165
G1 X114.909 Y150.142 E.07578
G1 X115.322 Y143.07 E.22212
G1 X115.513 Y142.779 E.01091
G1 X116.052 Y142.51 E.01889
G1 X116.422 Y142.217 E.0148
G1 X116.736 Y141.812 E.01607
G1 X117.036 Y141.382 E.01644
G1 X117.586 Y140.034 E.04565
G1 X117.499 Y139.965 E.00348
G1 X117.19 Y138.738 E.03967
G1 X116.942 Y138.277 E.01641
G1 X116.678 Y137.838 E.01606
G1 X116.344 Y137.504 E.01481
G1 X115.84 Y137.174 E.01889
G1 X115.684 Y136.863 E.01091
G1 X119.51 Y70.559 E2.08237
G1 X119.232 Y70.134 E.01592
G1 X118.841 Y69.88 E.01462
G1 X116.522 Y69.858 E.07271
G1 X115.466 Y69.618 E.03395
G1 X114.549 Y69.688 E.02884
G1 X113.951 Y69.858 E.01949
G1 X100.5 Y69.858 E.42175
G1 X100.499 Y71.759 E.0596
G1 X100.272 Y72.076 E.01222
G1 X98.227 Y72.677 E.06683
G1 E-7.7 F5400
;WIPE_START
G1 F7200
G1 X98.169 Y72.694 E-.04306
G1 X97.997 Y72.745 E-.12782
G1 X97.567 Y72.385 E-.39957
G1 X97.569 Y68.554 E-2.72955
;WIPE_END
G1 X117.818 Y140.461 F9000
G1 E11 F2400
G1 F1200
G1 X118.128 Y140.532 E.00997
G1 X117.998 Y142.673 E.06725
G1 X117.817 Y144.161 E.047
G1 X117.325 Y152.594 E.26486
G1 X117.216 Y152.697 E.0047
G1 X112.607 Y152.697 E.14451
G1 X112.497 Y152.586 E.0049
G1 X112.497 Y150.63 E.06133
G1 X112.607 Y150.519 E.0049
G1 X115.265 Y150.519 E.08334
G1 X115.694 Y143.167 E.23091
G1 X116.692 Y142.484 E.03792
G1 X117.363 Y141.573 E.03548
G1 X117.795 Y140.517 E.03577
G1 X117.825 Y139.667 F9000
G1 F1200
G1 X117.537 Y138.587 E.03505
G1 X116.977 Y137.604 E.03547
G1 X116.064 Y136.809 E.03796
G1 X119.925 Y70.738 E2.07514
G1 X119.875 Y70.458 E.00892
G1 X119.498 Y69.865 E.02203
G1 X118.929 Y69.512 E.02099
G1 X116.549 Y69.481 E.07463
G1 X115.495 Y69.241 E.03389
G1 X114.976 Y69.241 E.01627
G1 X113.922 Y69.481 E.03389
G1 X100.123 Y69.481 E.43266
G1 X100.122 Y71.661 E.06835
G1 X100.039 Y71.764 E.00415
G1 X98.101 Y72.355 E.06353
G1 X97.944 Y72.242 E.00607
G1 X97.947 Y67.414 E.15138
G1 X98.057 Y67.303 E.0049
G1 X118.934 Y67.308 E.65458
G1 X119.885 Y67.546 E.03074
G1 X120.365 Y67.794 E.01694
G1 X121.275 Y68.586 E.03783
G1 X121.88 Y69.603 E.0371
G1 X122.097 Y70.604 E.03211
G1 X118.283 Y136.17 E2.05925
G1 X118.209 Y139.158 E.09372
G1 X118.145 Y139.656 E.01574
G1 X117.884 Y139.665 E.00819
; printing object ControllerCase.STL id:0 copy 0
G1 E-7.7 F5400
;WIPE_START
G1 F7200
G1 X117.825 Y139.667 E-.04206
G1 X117.537 Y138.587 E-.79639
G1 X116.977 Y137.604 E-.80607
G1 X116.064 Y136.809 E-.86256
G1 X116.129 Y135.698 E-.79292
;WIPE_END
G1 X114.02 Y135.419 F9000
G1 E11 F2400
;TYPE:Support material
G1 F1200
G1 X113.871 Y137.977 E.08034
G1 X115.444 Y139.039 E.05951
G1 X115.677 Y139.396 E.01337
G1 X115.808 Y139.984 E.01889
G1 X115.61 Y140.553 E.01889
G1 X115.337 Y140.881 E.01338
G1 X113.651 Y141.752 E.0595
G1 X113.264 Y148.398 E.20873
G1 X110.375 Y148.398 E.09058
G1 X110.375 Y154.818 E.20129
G1 X115.626 Y154.818 E.16464
G1 X115.626 Y155.653 E.02618
G1 X99.037 Y155.653 E.52014
G1 X99.037 Y154.298 E.04249
G1 X99.66 Y154.559 E.02118
G1 X100.464 Y154.757 E.02596
G1 X101.203 Y154.818 E.02325
G1 X105.295 Y154.818 E.1283
G1 X105.295 Y148.399 E.20126
G1 X102.202 Y148.398 E.09698
G1 X102.203 Y147.07 E.04164
G1 X108.377 Y147.07 E.19358
G1 X108.377 Y146.313 E.02374
G1 X102.203 Y146.313 E.19358
G1 X102.229 Y97.703 E1.52413
G1 X116.22 Y97.703 E.43868
G1 X114.024 Y135.362 E1.18278
G1 E-7.7 F5400
;WIPE_START
G1 F7200
G1 X114.294 Y130.738 E-3.3
;WIPE_END
G1 X104.952 Y119.628 F9000
G1 E11 F2400
G1 F1200
G1 X108.377 Y119.628 E.10739
G1 X108.377 Y137.731 E.56761
G1 X104.952 Y137.731 E.10739
G1 X104.952 Y119.685 E.56582
G1 X108.954 Y106.286 F9000
G1 F1200
G1 X113.714 Y106.286 E.14925
G1 X113.714 Y108.377 E.06556
G1 X108.954 Y108.377 E.14925
G1 X108.954 Y106.342 E.06381
G1 E-7.7 F5400
;WIPE_START
G1 F7200
