; generated by PrusaSlicer 2.7.1+win64 on 2024-03-20 at 01:28:05 UTC

; 

; external perimeters extrusion width = 0.42mm
; perimeters extrusion width = 0.44mm
; infill extrusion width = 0.44mm
; solid infill extrusion width = 0.44mm
; top infill extrusion width = 0.40mm
; support material extrusion width = 0.36mm
; first layer extrusion width = 0.42mm

M201 X500 Y500 Z100 E5000 ; sets maximum accelerations, mm/sec^2
M203 X500 Y500 Z10 E60 ; sets maximum feedrates, mm / sec
M204 S500 T1000 ; sets acceleration (S) and retract acceleration (R), mm/sec^2
M205 X8.00 Y8.00 Z0.40 E5.00 ; sets the jerk limits, mm/sec
M205 S0 T0 ; sets the minimum extruding and travel feed rate, mm/sec

; printing object ControllerCase.STL id:0 copy 0
; stop printing object ControllerCase.STL id:0 copy 0

;TYPE:Custom
G90 ; use absolute coordinates
M83 ; extruder relative mode
M104 S150 ; set temporary nozzle temp to prevent oozing during homing
M140 S60 ; set final bed temp
G4 S30 ; allow partial nozzle warmup
G28 ; home all axis
G1 Z50 F240
G1 X2.0 Y10 F3000
M104 S205 ; set final nozzle temp
M190 S60 ; wait for bed temp to stabilize
M109 S205 ; wait for nozzle temp to stabilize
G1 Z0.28 F240
G92 E0
G1 X2.0 Y140 E10 F1500 ; prime the nozzle
G1 X2.3 Y140 F5000
G92 E0
G1 X2.3 Y10 E10 F1200 ; prime the nozzle
G92 E0
G21 ; set units to millimeters
G90 ; use absolute coordinates
M83 ; use relative distances for extrusion
; Filament gcode
M107
;LAYER_CHANGE
;Z:0.2
;HEIGHT:0.2
;BEFORE_LAYER_CHANGE
G92 E0
;0.2


G1 E-11 F5400
G1 Z.2 F9000
;AFTER_LAYER_CHANGE
;0.2
G1 X94.357 Y65.723
G1 Z.2
G1 E11 F2400
M204 S500
;TYPE:Skirt/Brim
;WIDTH:0.42
G1 F1200
G1 X95.309 Y64.617 E.04576
G1 X96.246 Y63.813 E.03871
G1 X97.403 Y63.086 E.04284
G1 X98.626 Y62.56 E.04174
G1 X99.629 Y62.29 E.03257
G1 X101.256 Y62.115 E.05131
G1 X117.936 Y62.115 E.52299
G1 X119.519 Y62.509 E.05115
G1 X120.253 Y63.036 E.02833
G1 X121.409 Y64.126 E.04982
G1 X122.29 Y65.499 E.05115
G1 X122.461 Y66.359 E.02749
G1 X123.302 Y79.062 E.39917
G1 X127.268 Y148.682 E2.18643
G1 X127.273 Y149.774 E.03424
G1 X127.089 Y151.054 E.04055
G1 X126.698 Y152.323 E.04163
G1 X126.17 Y153.425 E.03831
G1 X125.336 Y154.646 E.04636
G1 X124.509 Y155.528 E.03791
G1 X123.98 Y155.988 E.02198
G1 X122.833 Y156.77 E.04353
G1 X121.864 Y157.251 E.03392
G1 X120.622 Y157.658 E.04098
G1 X119.502 Y157.851 E.03563
G1 X118.537 Y157.885 E.03028
G1 X97.307 Y157.885 E.66565
G1 X95.724 Y157.491 E.05115
G1 X94.92 Y156.897 E.03134
G1 X93.748 Y155.726 E.05195
G1 X92.907 Y154.328 E.05115
G1 X92.759 Y153.339 E.03135
G1 X92.714 Y70.666 E2.59215
G1 X92.783 Y69.637 E.03234
G1 X92.977 Y68.651 E.03151
G1 X93.41 Y67.387 E.04189
G1 X93.724 Y66.741 E.02252
G1 X94.325 Y65.774 E.0357
G1 E-7.7 F5400
;WIPE_START
G1 F7200
G1 X94.357 Y65.723 E-.0429
G1 X95.309 Y64.617 E-1.03975
G1 X96.246 Y63.813 E-.8797
G1 X97.403 Y63.086 E-.97359
G1 X97.872 Y62.884 E-.36406
;WIPE_END
G1 X97.258 Y67.995 F9000
G1 E11 F2400
G1 F1200
G1 X97.919 Y67.213 E.0321
G1 X98.515 Y66.715 E.02435
G1 X99.168 Y66.317 E.02398
G1 X99.844 Y66.034 E.02298
G1 X100.584 Y65.852 E.02389
G1 X101.267 Y65.795 E.02149
G1 X117.452 Y65.799 E.50747
G1 X117.993 Y65.99 E.01799
G1 X118.504 Y66.445 E.02145
G1 X118.818 Y67.103 E.02286
G1 X119.444 Y77.768 E.33497
G1 X119.689 Y80.326 E.08057
G1 X119.705 Y82.305 E.06205
G1 X123.593 Y148.887 E2.09119
G1 X123.597 Y149.579 E.0217
G1 X123.501 Y150.231 E.02066
G1 X123.272 Y150.978 E.0245
G1 X122.922 Y151.69 E.02488
G1 X122.457 Y152.352 E.02537
G1 X121.897 Y152.936 E.02537
G1 X121.246 Y153.433 E.02568
G1 X120.566 Y153.802 E.02426
G1 X119.874 Y154.05 E.02305
G1 X119.17 Y154.185 E.02248
G1 X97.666 Y154.176 E.67424
G1 X97.149 Y153.921 E.01807
G1 X96.722 Y153.495 E.01891
G1 X96.447 Y152.874 E.02129
G1 X96.436 Y147.504 E.16837
G1 X96.509 Y147.2 E.0098
G1 X96.788 Y146.746 E.01671
G1 X97.509 Y146.227 E.02785
G1 X98.029 Y146.107 E.01673
G1 X98.34 Y146.134 E.00979
G1 X99.881 Y146.651 E.05096
G1 X101.158 Y146.87 E.04062
G1 X102.45 Y146.891 E.04052
G1 X103.731 Y146.712 E.04056
G1 X104.666 Y146.431 E.03061
G1 X103.745 Y144.835 E.05778
G1 X102.256 Y145.096 E.0474
G1 X101.217 Y145.065 E.03259
G1 X100.194 Y144.87 E.03265
G1 X99.186 Y144.504 E.03362
G1 X98.278 Y143.997 E.03261
G1 X97.462 Y143.355 E.03255
G1 X96.72 Y142.549 E.03435
G1 X96.433 Y141.759 E.02635
G1 X96.429 Y135.286 E.20296
G1 X96.482 Y134.987 E.00952
G1 X96.773 Y134.393 E.02074
G1 X97.454 Y133.667 E.03121
G1 X98.268 Y133.026 E.03249
G1 X99.177 Y132.516 E.03268
G1 X100.185 Y132.148 E.03365
G1 X101.24 Y131.949 E.03366
G1 X102.312 Y131.923 E.03362
G1 X103.744 Y132.181 E.04562
G1 X104.666 Y130.585 E.05779
G1 X103.728 Y130.303 E.03071
G1 X102.45 Y130.126 E.04045
G1 X101.101 Y130.154 E.04231
G1 X99.875 Y130.366 E.03901
G1 X98.331 Y130.886 E.05108
G1 X98.021 Y130.914 E.00976
G1 X97.5 Y130.794 E.01676
G1 X96.848 Y130.34 E.02491
G1 X96.644 Y130.103 E.0098
G1 X96.431 Y129.564 E.01817
G1 X96.395 Y70.671 E1.84655
G1 X96.569 Y69.452 E.03861
G1 X96.845 Y68.714 E.0247
G1 X97.228 Y68.047 E.02412
G1 X97.554 Y68.236 F9000
G1 F1200
G1 X97.576 Y68.199 E.00135
G1 X98.174 Y67.491 E.02906
G1 X98.725 Y67.028 E.02257
G1 X99.327 Y66.659 E.02214
G1 X99.975 Y66.388 E.02202
G1 X100.658 Y66.222 E.02204
G1 X101.275 Y66.172 E.01941
G1 X117.431 Y66.176 E.50656
G1 X117.809 Y66.321 E.01269
G1 X118.234 Y66.709 E.01804
G1 X118.443 Y67.155 E.01544
G1 X119.068 Y77.802 E.3344
G1 X119.312 Y80.341 E.07998
G1 X119.328 Y82.323 E.06215
G1 X123.216 Y148.904 E2.09116
G1 X123.13 Y150.162 E.03954
G1 X122.916 Y150.851 E.02262
G1 X122.59 Y151.509 E.02302
G1 X122.158 Y152.122 E.02351
G1 X121.636 Y152.663 E.02357
G1 X121.03 Y153.123 E.02385
G1 X120.4 Y153.463 E.02245
G1 X119.762 Y153.69 E.02123
G1 X119.118 Y153.811 E.02055
G1 X97.865 Y153.828 E.66637
G1 X97.393 Y153.632 E.01602
G1 X97.011 Y153.25 E.01694
G1 X96.819 Y152.81 E.01505
G1 X96.813 Y147.526 E.16568
G1 X97.064 Y147.004 E.01816
G1 X97.666 Y146.571 E.02325
G1 X98.063 Y146.483 E.01275
G1 X99.789 Y147.018 E.05666
G1 X101.123 Y147.247 E.04244
G1 X102.473 Y147.268 E.04233
G1 X103.812 Y147.082 E.04239
G1 X105.23 Y146.655 E.04643
G1 X103.923 Y144.39 E.08199
G1 X103.223 Y144.592 E.02284
G1 X102.252 Y144.719 E.0307
G1 X101.272 Y144.691 E.03074
G1 X100.307 Y144.51 E.03078
G1 X99.356 Y144.167 E.0317
G1 X98.498 Y143.691 E.03076
G1 X97.727 Y143.087 E.03071
G1 X97.037 Y142.343 E.03182
G1 X96.81 Y141.731 E.02047
G1 X96.806 Y135.304 E.20151
G1 X97.067 Y134.63 E.02266
G1 X97.719 Y133.936 E.02986
G1 X98.489 Y133.331 E.0307
G1 X99.347 Y132.853 E.0308
G1 X100.299 Y132.508 E.03175
G1 X101.266 Y132.325 E.03086
G1 X102.278 Y132.298 E.03174
G1 X103.221 Y132.423 E.02983
G1 X103.923 Y132.626 E.02291
G1 X105.23 Y130.361 E.08199
G1 X103.808 Y129.934 E.04655
G1 X102.472 Y129.748 E.04229
G1 X101.065 Y129.777 E.04412
G1 X99.782 Y130 E.04083
G1 X98.054 Y130.537 E.05674
G1 X97.657 Y130.45 E.01274
G1 X97.085 Y130.046 E.02196
G1 X96.809 Y129.537 E.01815
G1 X96.772 Y70.678 E1.84548
G1 X96.935 Y69.545 E.03589
G1 X97.192 Y68.862 E.02288
G1 X97.524 Y68.288 E.02079
G1 X97.85 Y68.477 F9000
G1 F1200
G1 X97.893 Y68.403 E.00268
G1 X98.429 Y67.769 E.02603
G1 X98.934 Y67.342 E.02074
G1 X99.511 Y66.988 E.02122
G1 X100.105 Y66.742 E.02016
G1 X100.731 Y66.593 E.02018
G1 X117.412 Y66.555 E.52302
G1 X117.623 Y66.651 E.00727
G1 X117.962 Y66.971 E.01462
G1 X118.069 Y67.211 E.00824
G1 X118.692 Y77.836 E.33371
G1 X118.875 Y79.325 E.04704
G1 X118.951 Y82.341 E.09459
G1 X122.84 Y148.922 E2.09116
G1 X122.759 Y150.093 E.0368
G1 X122.571 Y150.698 E.01986
G1 X122.273 Y151.304 E.02117
G1 X121.876 Y151.871 E.0217
G1 X121.375 Y152.39 E.02262
G1 X120.815 Y152.813 E.022
G1 X120.236 Y153.124 E.02061
G1 X119.066 Y153.437 E.03797
G1 X97.854 Y153.444 E.66509
G1 X97.636 Y153.341 E.00756
G1 X97.302 Y153.008 E.01479
G1 X97.193 Y152.758 E.00855
G1 X97.19 Y147.548 E.16336
G1 X97.333 Y147.268 E.00986
G1 X97.831 Y146.91 E.01923
G1 X98.097 Y146.859 E.00849
G1 X99.696 Y147.385 E.05278
G1 X101.088 Y147.623 E.04428
G1 X102.497 Y147.646 E.04418
G1 X103.892 Y147.451 E.04416
G1 X105.242 Y147.045 E.0442
G1 X105.75 Y146.801 E.01767
G1 X104.101 Y143.945 E.1034
G1 X103.158 Y144.22 E.0308
G1 X102.246 Y144.342 E.02885
G1 X101.325 Y144.318 E.02889
G1 X100.42 Y144.15 E.02886
G1 X99.524 Y143.829 E.02984
G1 X98.718 Y143.384 E.02887
G1 X97.992 Y142.818 E.02886
G1 X97.35 Y142.132 E.02946
G1 X97.187 Y141.7 E.01448
G1 X97.212 Y135.179 E.20446
G1 X97.363 Y134.866 E.0109
G1 X97.965 Y134.223 E.02762
G1 X98.687 Y133.653 E.02884
G1 X99.491 Y133.202 E.0289
G1 X100.386 Y132.875 E.02988
G1 X101.292 Y132.702 E.02892
G1 X102.243 Y132.674 E.02983
G1 X103.157 Y132.795 E.02891
G1 X104.101 Y133.071 E.03084
G1 X105.75 Y130.215 E.1034
G1 X105.24 Y129.971 E.01773
G1 X103.889 Y129.564 E.04424
G1 X102.494 Y129.37 E.04416
G1 X101.028 Y129.401 E.04598
G1 X99.689 Y129.633 E.04261
G1 X98.088 Y130.161 E.05286
G1 X97.822 Y130.111 E.00849
G1 X97.324 Y129.753 E.01923
G1 X97.18 Y129.473 E.00987
G1 X97.149 Y70.685 E1.84326
G1 X97.3 Y69.639 E.03314
G1 X97.539 Y69.011 E.02107
G1 X97.82 Y68.529 E.01749
G1 X98.144 Y68.72 F9000
G1 F1200
G1 X98.21 Y68.608 E.00408
G1 X98.686 Y68.046 E.02309
G1 X99.671 Y67.33 E.03818
G1 X100.776 Y66.967 E.03647
G1 X117.327 Y66.926 E.51895
G1 X117.695 Y67.273 E.01586
G1 X118.317 Y77.87 E.33283
G1 X118.499 Y79.353 E.04685
G1 X118.575 Y82.359 E.09428
G1 X122.463 Y148.94 E2.09116
G1 X122.395 Y149.997 E.03321
G1 X121.956 Y151.1 E.03722
G1 X121.576 Y151.642 E.02075
G1 X121.115 Y152.117 E.02075
G1 X120.072 Y152.784 E.03882
G1 X119.016 Y153.063 E.03425
G1 X97.942 Y153.074 E.66076
G1 X97.57 Y152.702 E.0165
G1 X97.609 Y147.535 E.16201
G1 X98.086 Y147.242 E.01755
G1 X99.604 Y147.751 E.0502
G1 X101.053 Y148 E.0461
G1 X102.52 Y148.023 E.046
G1 X103.973 Y147.821 E.046
G1 X105.378 Y147.398 E.04601
G1 X106.281 Y146.965 E.0314
G1 X104.248 Y143.444 E.12748
G1 X103.093 Y143.849 E.03838
G1 X102.239 Y143.964 E.02702
G1 X101.378 Y143.944 E.027
G1 X100.531 Y143.789 E.027
G1 X99.692 Y143.491 E.02792
G1 X98.937 Y143.077 E.027
G1 X98.256 Y142.549 E.02702
G1 X97.656 Y141.912 E.02744
G1 X97.564 Y141.666 E.00823
G1 X97.566 Y135.31 E.19929
G1 X97.661 Y135.099 E.00726
G1 X98.23 Y134.491 E.02611
G1 X98.907 Y133.959 E.027
G1 X99.661 Y133.539 E.02706
G1 X100.5 Y133.235 E.02798
G1 X101.347 Y133.075 E.02703
G1 X102.238 Y133.052 E.02795
G1 X103.092 Y133.167 E.02702
G1 X104.248 Y133.572 E.03841
G1 X106.281 Y130.051 E.12748
G1 X105.377 Y129.618 E.03143
G1 X103.97 Y129.195 E.04607
G1 X102.516 Y128.993 E.04603
G1 X100.992 Y129.025 E.04779
G1 X99.596 Y129.267 E.04442
G1 X98.077 Y129.778 E.05025
G1 X97.557 Y129.405 E.02007
G1 X97.526 Y70.692 E1.84091
G1 X97.665 Y69.734 E.03035
G1 X97.885 Y69.162 E.01922
G1 X98.114 Y68.772 E.01418
G1 X98.464 Y68.942 F9000
G1 F1200
G1 X98.526 Y68.814 E.00446
G1 X98.943 Y68.322 E.02022
G1 X99.833 Y67.671 E.03457
G1 X100.822 Y67.342 E.03268
G1 X117.216 Y67.303 E.51402
G1 X117.325 Y67.406 E.0047
G1 X117.941 Y77.904 E.32972
G1 X118.182 Y80.385 E.07816
G1 X118.198 Y82.377 E.06246
G1 X122.087 Y148.959 E2.09119
G1 X122.029 Y149.902 E.02962
G1 X121.637 Y150.898 E.03356
G1 X120.855 Y151.843 E.03846
G1 X119.91 Y152.443 E.0351
G1 X118.967 Y152.689 E.03056
G1 X98.057 Y152.697 E.65562
G1 X97.947 Y152.586 E.0049
G1 X97.944 Y147.758 E.15138
G1 X98.101 Y147.645 E.00607
G1 X99.511 Y148.118 E.04663
G1 X101.018 Y148.377 E.04794
G1 X102.543 Y148.401 E.04782
G1 X104.054 Y148.19 E.04784
G1 X105.515 Y147.75 E.04784
G1 X106.811 Y147.13 E.04505
G1 X104.4 Y142.954 E.15119
G1 X103.742 Y143.264 E.02281
G1 X103 Y143.483 E.02426
G1 X102.205 Y143.589 E.02515
G1 X101.403 Y143.568 E.02515
G1 X100.615 Y143.421 E.02513
G1 X99.859 Y143.153 E.02515
G1 X99.155 Y142.769 E.02514
G1 X98.52 Y142.279 E.02515
G1 X97.967 Y141.692 E.02529
G1 X97.938 Y135.394 E.19747
G1 X98.495 Y134.76 E.02646
G1 X99.128 Y134.265 E.0252
G1 X99.83 Y133.877 E.02515
G1 X100.612 Y133.595 E.02606
G1 X101.401 Y133.448 E.02516
G1 X102.203 Y133.427 E.02515
G1 X102.999 Y133.533 E.02518
G1 X103.741 Y133.752 E.02426
G1 X104.4 Y134.062 E.02283
G1 X106.811 Y129.886 E.15119
G1 X105.513 Y129.265 E.04512
G1 X104.051 Y128.825 E.04787
G1 X102.538 Y128.615 E.04789
G1 X100.956 Y128.648 E.04961
G1 X99.503 Y128.9 E.04624
G1 X98.091 Y129.376 E.04672
G1 X97.934 Y129.263 E.00607
G1 X97.903 Y70.698 E1.83626
G1 X98.031 Y69.828 E.02757
G1 X98.437 Y68.996 E.02903
G1 E-7.7 F5400
;WIPE_START
G1 F7200
G1 X98.464 Y68.942 E-.04302
G1 X98.526 Y68.814 E-.10134
G1 X98.943 Y68.322 E-.45952
G1 X99.833 Y67.671 E-.78566
G1 X100.822 Y67.342 E-.74263
G1 X102.461 Y67.338 E-1.16783
;WIPE_END
G1 X113.491 Y79.73 F9000
G1 E11 F2400
G1 F1200
G1 X113.783 Y79.32 E.01578
G1 X114.089 Y79.04 E.013
G1 X114.359 Y78.954 E.00888
G1 X114.741 Y78.97 E.01199
G1 X115.101 Y79.114 E.01216
G1 X115.403 Y79.413 E.01332
G1 X115.547 Y80.071 E.02112
G1 X115.484 Y80.628 E.01758
G1 X115.377 Y80.829 E.00714
G1 X115.101 Y81.07 E.01149
G1 X114.741 Y81.214 E.01216
G1 X114.359 Y81.23 E.01199
G1 X113.964 Y81.05 E.01361
G1 X113.238 Y80.084 E.03789
G1 X113.456 Y79.779 E.01175
G1 X113.17 Y79.56 F9000
G1 F1200
G1 X113.714 Y78.85 E.02804
G1 X114.08 Y78.63 E.01339
G1 X114.563 Y78.567 E.01527
G1 X115.068 Y78.675 E.01619
G1 X115.658 Y79.106 E.02291
G1 X115.753 Y79.264 E.00578
G1 X115.926 Y80.076 E.02603
G1 X115.853 Y80.716 E.0202
G1 X115.675 Y81.063 E.01223
G1 X115.068 Y81.509 E.02362
G1 X114.563 Y81.617 E.01619
G1 X114.08 Y81.554 E.01527
G1 X113.714 Y81.334 E.01339
G1 X112.934 Y80.308 E.04041
G1 X112.625 Y80.092 E.01182
G1 X112.895 Y79.92 E.01004
G1 X113.133 Y79.608 E.0123
G1 E-7.7 F5400
;WIPE_START
G1 F7200
G1 X113.17 Y79.56 E-.04318
G1 X113.714 Y78.85 E-.63729
G1 X114.08 Y78.63 E-.30426
G1 X114.563 Y78.567 E-.34705
G1 X115.068 Y78.675 E-.36795
G1 X115.658 Y79.106 E-.52059
G1 X115.753 Y79.264 E-.13136
G1 X115.926 Y80.076 E-.59154
G1 X115.869 Y80.574 E-.35678
;WIPE_END
G1 X110.787 Y80.092 F9000
G1 E11 F2400
G1 F1200
G1 X110.494 Y80.446 E.01441
G1 X110.362 Y80.781 E.01129
G1 X110.296 Y81.646 E.0272
G1 X110.394 Y84.191 E.07986
G1 X110.395 Y102.795 E.58332
G1 X102.088 Y102.795 E.26046
G1 X102.088 Y78.99 E.74639
G1 X110.326 Y79 E.2583
G1 X110.471 Y79.704 E.02254
G1 X110.749 Y80.046 E.01382
G1 X111.035 Y79.802 F9000
G1 F1200
G1 X111.159 Y79.948 E.00601
G1 X111.486 Y80.094 E.01123
G1 X111.148 Y80.248 E.01165
G1 X110.805 Y80.661 E.01683
G1 X110.673 Y81.652 E.03135
G1 X110.771 Y84.187 E.07954
G1 X110.772 Y103.172 E.59526
G1 X101.711 Y103.172 E.2841
G1 X101.711 Y78.613 E.77003
G1 X110.672 Y78.623 E.28097
G1 X110.813 Y79.541 E.02912
G1 X110.996 Y79.756 E.00885
G1 X111.267 Y79.488 F9000
G1 F1200
G1 X111.483 Y79.705 E.0096
G1 X112.091 Y79.858 E.01966
G1 X112.634 Y79.645 E.01829
G1 X113.217 Y78.82 E.03167
G1 X113.703 Y78.386 E.02043
G1 X114.259 Y78.204 E.01834
G1 X114.899 Y78.23 E.02008
G1 X115.497 Y78.469 E.02019
G1 X115.959 Y78.877 E.01933
G1 X116.099 Y79.107 E.00844
G1 X116.278 Y79.772 E.02159
G1 X116.223 Y80.804 E.0324
G1 X116.13 Y81.053 E.00833
G1 X115.756 Y81.524 E.01886
G1 X115.497 Y81.715 E.01009
G1 X114.899 Y81.954 E.02019
G1 X114.579 Y81.995 E.01012
G1 X113.96 Y81.913 E.01958
G1 X113.703 Y81.798 E.00883
G1 X113.217 Y81.364 E.02043
G1 X112.634 Y80.539 E.03167
G1 X112.205 Y80.334 E.01491
G1 X111.475 Y80.487 E.02339
G1 X111.1 Y80.939 E.01841
G1 X111.049 Y82.22 E.0402
G1 X111.148 Y84.183 E.06163
G1 X111.149 Y103.549 E.60721
G1 X101.334 Y103.549 E.30774
G1 X101.334 Y78.235 E.7937
G1 X111.049 Y78.246 E.30461
G1 X111.15 Y79.369 E.03535
G1 X111.225 Y79.445 E.00335
G1 X111.506 Y79.206 F9000
G1 F1200
G1 X111.632 Y79.353 E.00607
G1 X112.126 Y79.478 E.01598
G1 X112.351 Y79.39 E.00758
G1 X112.934 Y78.57 E.03155
G1 X113.51 Y78.06 E.02412
G1 X113.841 Y77.911 E.01138
G1 X114.594 Y77.811 E.02382
G1 X114.978 Y77.86 E.01214
G1 X115.695 Y78.147 E.02422
G1 X116.261 Y78.647 E.02368
G1 X116.445 Y78.95 E.01111
G1 X116.683 Y80.087 E.03642
G1 X116.592 Y80.893 E.02543
G1 X116.469 Y81.223 E.01104
G1 X116.007 Y81.808 E.02337
G1 X115.349 Y82.211 E.02419
G1 X114.978 Y82.324 E.01216
G1 X114.208 Y82.355 E.02416
G1 X113.51 Y82.124 E.02305
G1 X113.213 Y81.901 E.01164
G1 X112.351 Y80.795 E.04397
G1 X112.125 Y80.707 E.0076
G1 X111.627 Y80.837 E.01614
